!!!COM: Beethoven, Ludwig van
!!!CDT: 1770///-1827///
!!!OTL: String Quartet No. 2 in G Major, Op. 18, No. 2
!!!OPS: Op. 18
!!!ONM: No. 2
!!!OMV: Mvmt. 1
!!!OMD: Allegro
**kern	**dynam	**kern	**dynam	**kern	**dynam	**kern	**dynam
*staff4	*staff4	*staff3	*staff3	*staff2	*staff2	*staff1	*staff1
*Icello	*Icello	*Iviola	*Iviola	*Ivioln	*Ivioln	*Ivioln	*Ivioln
*>[A,A,B]	*>[A,A,B]	*>[A,A,B]	*>[A,A,B]	*>[A,A,B]	*>[A,A,B]	*>[A,A,B]	*>[A,A,B]
*>norep[A,B]	*>norep[A,B]	*>norep[A,B]	*>norep[A,B]	*>norep[A,B]	*>norep[A,B]	*>norep[A,B]	*>norep[A,B]
*>A	*>A	*>A	*>A	*>A	*>A	*>A	*>A
*clefF4	*clefF4	*clefC3	*clefC3	*clefG2	*clefG2	*clefG2	*clefG2
*k[f#]	*k[f#]	*k[f#]	*k[f#]	*k[f#]	*k[f#]	*k[f#]	*k[f#]
*G:	*G:	*G:	*G:	*G:	*G:	*G:	*G:
*M2/4	*M2/4	*M2/4	*M2/4	*M2/4	*M2/4	*M2/4	*M2/4
*MM120	*MM120	*MM120	*MM120	*MM120	*MM120	*MM120	*MM120
=1-	=1-	=1-	=1-	=1-	=1-	=1-	=1-
[2G\	p	[2B/	p	[2d/	p	(4dd\	p
.	.	.	.	.	.	32b\LLL	.
.	.	.	.	.	.	32cc\	.
.	.	.	.	.	.	32b\	.
.	.	.	.	.	.	32cc\	.
.	.	.	.	.	.	32dd\	.
.	.	.	.	.	.	32ee\	.
.	.	.	.	.	.	32ff#\	.
.	.	.	.	.	.	32gg\JJJ)	.
=2	=2	=2	=2	=2	=2	=2	=2
4G\]	.	4B/]	.	4d/]	.	4dd\	.
8r	.	8r	.	8r	.	8r	.
16.r	.	16.r	.	16.r	.	16.r	.
32B\	.	32B/	.	32B/	.	32b\	.
=3	=3	=3	=3	=3	=3	=3	=3
8c\L	.	8c\L	.	8c/L	.	8cc\L	.
16.r	.	16.r	.	16.r	.	16.r	.
32c\Jkk	.	32c\Jkk	.	32cc/Jkk	.	32cc\Jkk	.
8A\L	.	8A/L	.	8a/L	.	8a/L	.
16.r	.	16.r	.	16.r	.	16.r	.
32F#\Jkk	.	32F#/Jkk	.	32f#/Jkk	.	32f#/Jkk	.
=4	=4	=4	=4	=4	=4	=4	=4
4D\	.	4D/	.	4d/	.	4d/	.
4r	.	4r	.	4r	.	8r	.
.	.	.	.	.	.	8d/	.
=5	=5	=5	=5	=5	=5	=5	=5
2r	.	8r	.	8r	.	(4g/	.
.	.	8e'\	.	4g/	.	.	.
.	.	8c'\L	.	.	.	16a/LL	.
.	.	.	.	.	.	16b/	.
.	.	8d'\J	.	8f#'/	.	16cc/	.
.	.	.	.	.	.	16a/JJ)	.
=6	=6	=6	=6	=6	=6	=6	=6
2r	.	8B'/L	.	8g'/L	.	(4dd\	.
.	.	8G'/J	.	8b'/J	.	.	.
.	.	4r	.	4r	.	8gg\L)	.
.	.	.	.	.	.	8d\J	.
=7	=7	=7	=7	=7	=7	=7	=7
8r	.	8r	.	8r	.	(4g/	.
8E'\	.	4G/	.	8B'/	.	.	.
8C'/L	.	.	.	8e'/L	.	16a/LL	.
.	.	.	.	.	.	16b/	.
8D'/J	.	8F#'/	.	8c'/J	.	16cc/	.
.	.	.	.	.	.	16a/JJ)	.
=8	=8	=8	=8	=8	=8	=8	=8
8GG'/	.	8G'/	.	8B'/	.	8g/	.
4.r	.	4.r	.	4.r	.	4.r	.
=9	=9	=9	=9	=9	=9	=9	=9
2G\	f	2d\	f	[2d/ [2b/	f	4b\ 4bb\	f
.	.	.	.	.	.	(32aa\LLL	.
.	.	.	.	.	.	32gg\	.
.	.	.	.	.	.	32ff#\	.
.	.	.	.	.	.	32gg\	.
.	.	.	.	.	.	32ff#\	.
.	.	.	.	.	.	32gg\	.
.	.	.	.	.	.	32bb\	.
.	.	.	.	.	.	32gg\JJJ)	.
=10	=10	=10	=10	=10	=10	=10	=10
8A\	p	8f#\	p	8d/] 8b/]	p	8dd\	p
8r	.	8r	.	8r	.	8r	.
8r	.	8r	.	8r	.	8r	.
16.r	.	16.r	.	16.r	.	16.r	.
32A\	.	32c\	.	32d/	.	32d/	.
=11	=11	=11	=11	=11	=11	=11	=11
8B\L	.	8d\L	.	8d/L	.	8g/L	.
16.r	.	16.r	.	16.r	.	16.r	.
32B\Jkk	.	32d\Jkk	.	32d/Jkk	.	32g/Jkk	.
8G\L	.	8B/L	.	8g/L	.	8b\L	.
16.r	.	16.r	.	16.r	.	16.r	.
32G\Jkk	.	32B/Jkk	.	32g/Jkk	.	32b\Jkk	.
=12	=12	=12	=12	=12	=12	=12	=12
8D\	.	8A/	.	8f#/	.	8dd\	.
4.r	.	4.r	.	4.r	.	4.r	.
=13	=13	=13	=13	=13	=13	=13	=13
(2GG/	f	[2D/	f	(2B/	f	4G/ 4d/ 4b/ 4bb/	f
.	.	.	.	.	.	(32aa\LLL	.
.	.	.	.	.	.	32gg\	.
.	.	.	.	.	.	32ff#\	.
.	.	.	.	.	.	32gg\	.
.	.	.	.	.	.	32ff#\	.
.	.	.	.	.	.	32gg\	.
.	.	.	.	.	.	32bb\	.
.	.	.	.	.	.	32gg\JJJ)	.
=14	=14	=14	=14	=14	=14	=14	=14
4AA/)	p	4D/]	p	4c/)	p	4dd\	p
8r	.	8r	.	8r	.	8r	.
16.r	.	16.r	.	16.r	.	16.r	.
32AA/	.	32D/	.	32c/	.	32dd\	.
=15	=15	=15	=15	=15	=15	=15	=15
8BB/L	.	8D/L	.	8d/L	.	8gg\L	.
16.r	.	16.r	.	16.r	.	16.r	.
32BB/Jkk	.	32D/Jkk	.	32d/Jkk	.	32gg\Jkk	.
8GG/L	.	8G/L	.	8b\L	.	8bb\L	.
16.r	.	16.r	.	16.r	.	16.r	.
32GG/Jkk	.	32G/Jkk	.	32b\Jkk	.	32bb\Jkk	.
=16	=16	=16	=16	=16	=16	=16	=16
8DD/	.	8F#/	.	8a/	.	8ddd\	.
4.r	.	4.r	.	4.r	.	4.r	.
=17	=17	=17	=17	=17	=17	=17	=17
(4e\	.	2r	.	2g/	<	2cc\	.
4e-\)	<	.	.	.	.	.	.
=18	=18	=18	=18	=18	=18	=18	=18
4.d\	f	4.f#\	f	4.a/	f	[4ccc\	<
.	.	.	.	.	.	(32ccc\LLL]	>
.	.	.	.	.	.	32bb\	.
.	.	.	.	.	.	32aa\	.
.	.	.	.	.	.	32gg\	.
8F#\	>	8d\	>	8a/	>	32ff#\	.
.	.	.	.	.	.	32ee\	.
.	.	.	.	.	.	32dd\	.
.	.	.	.	.	.	32cc\JJJ)	.
=19	=19	=19	=19	=19	=19	=19	=19
8G\L	p	8g\L	p	8b/L	p	8b\L	p
16.r	.	16.r	.	16.r	.	16.r	.
32E\Jkk	.	32B\Jkk	.	32g/Jkk	.	32gg\Jkk	.
8C/L	.	8e\L	.	8g/L	.	8a\L	.
16.r	.	16.r	.	16.r	.	16.r	.
32D/Jkk	.	32c\Jkk	.	32f#/Jkk	.	32dd\Jkk	.
=20	=20	=20	=20	=20	=20	=20	=20
8G\	.	8B/	.	8g/	.	8g/	.
4.r	.	4.r	.	4.r	.	4.r	.
=21	=21	=21	=21	=21	=21	=21	=21
4D'\	f	4D'/	f	4d'/	f	4d'/	f
4D'\	.	4D'/	.	4d'/	.	4d'/	.
=22	=22	=22	=22	=22	=22	=22	=22
4.G\	.	4.G/	p	4.g/	.	4.g/	p
8r	.	8G/	.	(16B/LL	.	(16b/LL	.
.	.	.	.	16d/JJ)	.	16g/JJ)	.
=23	=23	=23	=23	=23	=23	=23	=23
2r	.	8A'/L	.	(16c/LL	.	(16g/LL	.
.	.	.	.	16d/)	.	16f#/)	.
.	.	8A'/J	.	(16c/	.	16a/	.
.	.	.	.	16d/JJ)	.	16f#/JJ	.
.	.	8G'/L	.	(16B/LL	.	16a/LL	.
.	.	.	.	16d/)	.	&(16g/&)	.
.	.	8G'/J	.	(16B/	.	16b/	.
.	.	.	.	16d/JJ)	.	&(16g/JJ&)	.
=24	=24	=24	=24	=24	=24	=24	=24
2r	.	8F#/	.	16A/LL	.	8dd\	.
.	.	.	.	16d/JJ	.	.	.
.	.	8r	.	8r	.	8r	.
.	.	4r	.	4r	.	4r	.
=25	=25	=25	=25	=25	=25	=25	=25
4BB'/	f	4B'/	f	4B'/	.	2r	.
4BB'/	.	4B'/	.	4B'/	.	.	.
=26	=26	=26	=26	=26	=26	=26	=26
4.E\	p	4.e\	.	4.e/	p	4r	p
.	.	.	.	.	.	8r	.
8r	.	8e'\	.	(16g/LL	.	(16gg\LL	.
.	.	.	.	16b/JJ)	.	16ee\JJ)	.
=27	=27	=27	=27	=27	=27	=27	=27
2r	.	8f#'\L	.	(16a/LL	.	(16ee\LL	.
.	.	.	.	16b/)	.	16dd#\)	.
.	.	8f#'\J	.	(16a/	.	(16ff#\	.
.	.	.	.	16b/JJ)	.	16dd#\JJ)	.
.	.	8e'\L	.	(16g/LL	.	(16ff#\LL	.
.	.	.	.	16b/)	.	16ee\)	.
.	.	8e'\J	.	(16g/	.	(16gg\	.
.	.	.	.	16b/JJ)	.	16ee\JJ)	.
=28	=28	=28	=28	=28	=28	=28	=28
8r	p	8e-\	.	(16f#/LL	.	4bb\	.
.	.	.	.	16b/JJ)	.	.	.
8BB'/L	.	4r	.	4r	.	.	.
8E'/J	.	.	.	.	.	8r	.
8r	.	8en\	.	(16g/LL	.	(16gg\LL	.
.	.	.	.	16b/JJ)	.	16ee\JJ)	.
=29	=29	=29	=29	=29	=29	=29	=29
2r	.	8e'\L	.	(16g/LL	.	(16dd\LL	.
.	.	.	.	16a/)	.	16cc#\)	.
.	.	8e'\J	.	(16g/	.	(16ee\	.
.	.	.	.	16a/JJ)	.	16cc#\JJ)	.
.	.	8d'\L	.	(16f#/LL	.	(16ee\LL	.
.	.	.	.	16a/)	.	16dd\)	.
.	.	8d'\J	.	(16f#/	.	(16ff#\	.
.	.	.	.	16a/JJ)	.	16dd\JJ)	.
=30	=30	=30	=30	=30	=30	=30	=30
8r	.	8c#\	.	(16e/LL	.	4aa\	.
.	.	.	.	16a/JJ)	.	.	.
8AA'/L	.	4r	.	4r	.	.	.
8D'/J	.	.	.	.	.	8r	.
8r	.	8d\	.	(16fn/LL	.	(16ffn\LL	.
.	.	.	.	16a/JJ)	.	16dd\JJ)	.
=31	=31	=31	=31	=31	=31	=31	=31
2r	.	8e'\L	.	(16g/LL	.	(16dd\LL	.
.	.	.	.	16a/)	.	16cc#\)	.
.	.	8e'\J	.	(16g/	.	(16ee\	.
.	.	.	.	16a/JJ)	.	16cc#\JJ)	.
.	.	8d'\L	.	(16fn/LL	.	(16ee\LL	.
.	.	.	.	16a/)	.	16dd\)	.
.	.	8d'\J	.	(16f/	.	(16ffn\	.
.	.	.	.	16a/JJ)	.	16dd\JJ)	.
=32	=32	=32	=32	=32	=32	=32	=32
8AA/	<	16c#'/LL	<	16e'/LL	<	16aa\LL	<
.	.	(16c#/	.	(16e/	.	16a\J	.
8r	.	16A/	.	16c#/	.	8.aa\J	.
.	.	16c#/JJ)	.	16e/JJ)	.	.	.
8D\	.	16d'/LL	.	16fn'/LL	.	.	.
.	.	(16d/	.	(16f/	.	16a\LK	.
8r	.	16A/	.	16d/	.	[8aa\J	.
.	.	16d/JJ)	.	16f/JJ)	.	.	.
=33	=33	=33	=33	=33	=33	=33	=33
8AA/	.	16c#'\LL	.	16e'/LL	.	16aa\LL]	.
.	.	(16c#\	.	(16ee/	.	16a\J	.
8r	.	16e\	.	16cc#/	.	8.aa\J	.
.	.	16c#\JJ)	.	16ee/JJ)	.	.	.
8D\	.	16d'\LL	.	16ffn'\LL	.	.	.
.	.	(16d\	.	(16ff\	.	16a\LK	.
8r	.	16fn\	.	16dd\	.	[8aa\J	.
.	.	16d\JJ)	.	16ff\JJ)	.	.	.
=34	=34	=34	=34	=34	=34	=34	=34
4AA/	f	4c#\	f	4ee\	f	24aa\LL]	f
.	.	.	.	.	.	24a'\	.
.	.	.	.	.	.	24cc#'\JJ	.
.	.	.	.	.	.	24ee'\LL	.
.	.	.	.	.	.	24aa'\	.
.	.	.	.	.	.	24ccc#'\JJ	.
8r	.	8r	.	8r	.	24eee'\LL	.
.	.	.	.	.	.	24ccc#'\	.
.	.	.	.	.	.	24aa'\JJ	.
24AA'/LL	.	24A'\LL	.	24A'/LL	.	24ee'\LL	.
24C#'/	.	24c#'\	.	24c#'/	.	24cc#'\	.
24E'/JJ	.	24e'\JJ	.	24e'/JJ	.	24a'\JJ	.
=35	=35	=35	=35	=35	=35	=35	=35
4A\	.	4a\	.	4a/	.	4A/	p
4r	.	4r	.	4r	.	8r	.
.	.	.	.	.	.	8a/	.
=36	=36	=36	=36	=36	=36	=36	=36
4d'\	p	4a'\	p	4r	p	4ff#'\	.
4g'\	.	4a'\	.	4cc#'\	.	4ee'\	.
=37	=37	=37	=37	=37	=37	=37	=37
4.f#\	p	4.a\	p	4.dd\	p	4.aa\	p
8c#\	.	8e\	.	8b-\	.	8gg\	.
=38	=38	=38	=38	=38	=38	=38	=38
8d'\L	.	8f#'\L	.	8a'/L	.	8ff#'\L	.
8A#'\J	.	8c#'\J	.	8g'/J	.	8ee'\J	.
8B'\L	.	8d'\L	.	8f#'/L	.	8dd'\L	.
8G#'\J	.	8d'\J	.	8e'/J	.	8ee'\J	.
=39	=39	=39	=39	=39	=39	=39	=39
8A\	.	8c#\	.	8e/	.	16a'/LL	.
.	.	.	.	.	.	16a'/	.
4.r	.	4.r	.	4.r	.	16b'/	.
.	.	.	.	.	.	16cc#'/JJ	.
.	.	.	.	.	.	16dd'\LL	.
.	.	.	.	.	.	16ee-'\	.
.	.	.	.	.	.	16een'\	.
.	.	.	.	.	.	16ff#'\JJ	.
=40	=40	=40	=40	=40	=40	=40	=40
4e'\	.	4b'\	.	4r	.	4gg'\	.
4a'\	.	4b'\	.	4dd#'\	.	4ff#'\	.
=41	=41	=41	=41	=41	=41	=41	=41
4.g\	.	4.b\	.	4.ee\	.	4.bb\	.
(8g\	.	[8a\	.	(8ee\	.	(8ccc#\	.
=42	=42	=42	=42	=42	=42	=42	=42
8f#'\L)	.	8a\L]	.	8dd'\L)	.	8ddd'\L)	.
8g'\J	.	8b'\J	.	8ee'\J	.	8eee'\J	.
8a'\L	.	8dd'\L	.	8ff#'\L	.	8aa'\L	.
8A'\J	.	8ee'\J	.	8gg'\J	.	8ccc#'\J	.
=43	=43	=43	=43	=43	=43	=43	=43
4d\	.	4dd\	.	16ff#/LL	.	8ddd\	.
.	.	.	.	16A'/	.	.	.
.	.	.	.	16B'/	.	4.r	.
.	.	.	.	16c#'/JJ	.	.	.
4r	.	4r	.	16d'/LL	.	.	.
.	.	.	.	16e-'/	.	.	.
.	.	.	.	16en'/	.	.	.
.	.	.	.	16fn'/JJ	.	.	.
=44	=44	=44	=44	=44	=44	=44	=44
4D'\	p	4A'/	.	4f#'/	p	16r	.
.	.	.	.	.	.	16a'\LL	.
.	.	.	.	.	.	16b'\	.
.	.	.	.	.	.	16cc#'\JJ	.
4G'\	.	4A'/	.	4e'/	.	16dd'\LL	.
.	.	.	.	.	.	16ee'\	.
.	.	.	.	.	.	16ff#'\	.
.	.	.	.	.	.	16gg'\JJ	.
=45	=45	=45	=45	=45	=45	=45	=45
4.F#\	.	4.A/	.	4.a/	.	16aa\LL	.
.	.	.	.	.	.	16aa\	.
.	.	.	.	.	.	16bb\	.
.	.	.	.	.	.	16ccc#\JJ	.
.	.	.	.	.	.	16ddd\LL	.
.	.	.	.	.	.	16eee\	.
8E'\	.	8A'/	.	8g'/	.	16fff#\	.
.	.	.	.	.	.	16ggg\JJ	.
=46	=46	=46	=46	=46	=46	=46	=46
8D'/L	.	8A'/L	.	8f#'/L	.	16aaa\LL	.
.	.	.	.	.	.	16aaa\	.
8C#'/J	.	8A'/J	.	8e'/J	.	16aaa\	.
.	.	.	.	.	.	16aaa\JJ	.
8BB'/L	.	8A'/L	.	8d'/L	.	16aaa\LL	.
.	.	.	.	.	.	16ggg#\	.
8EE'/J	.	8E'/J	.	8d'/J	.	16fff#\	.
.	.	.	.	.	.	16ggg#\JJ	.
=47	=47	=47	=47	=47	=47	=47	=47
8AA/	.	8A/	.	16c#'/LL	.	8aaa\	.
.	.	.	.	16A'/	.	.	.
4.r	.	4.r	.	16B'/	.	4.r	.
.	.	.	.	16c#'/JJ	.	.	.
.	.	.	.	16d'/LL	.	.	.
.	.	.	.	16d#'/	.	.	.
.	.	.	.	16e'/	.	.	.
.	.	.	.	16f#'/JJ	.	.	.
=48	=48	=48	=48	=48	=48	=48	=48
4E'\	.	4B'/	.	4g'/	.	16r	.
.	.	.	.	.	.	16b'\LL	.
.	.	.	.	.	.	16cc#'\	.
.	.	.	.	.	.	16dd#'\JJ	.
4A'\	.	4B'/	.	4f#'/	.	16ee'\LL	.
.	.	.	.	.	.	16ff#'\	.
.	.	.	.	.	.	16gg'\	.
.	.	.	.	.	.	16aa'\JJ	.
=49	=49	=49	=49	=49	=49	=49	=49
4.G\	.	4.B/	.	4.b\	.	16bb\LL	.
.	.	.	.	.	.	16bb\	.
.	.	.	.	.	.	16ccc#\	.
.	.	.	.	.	.	16ddd#\JJ	.
.	.	.	.	.	.	16eee#\LL	.
.	.	.	.	.	.	16fff#\	.
8F#\	.	8B/	.	8a/	.	16ggg#\	.
.	.	.	.	.	.	16aaa#\JJ	.
=50	=50	=50	=50	=50	=50	=50	=50
8E'\L	>	8B'/L	>	8g'/L	>	16bbb\LL	>
.	.	.	.	.	.	16bb\	.
8F#'\J	.	8B'/J	.	8f#'/J	.	16bb\	.
.	.	.	.	.	.	16bb\JJ	.
8G'\L	.	8dn'\L	.	8e#'/L	.	16bb\LL	.
.	.	.	.	.	.	16bb\	.
8G'\J	.	8B'\J	.	8e#'/J	.	16bb\	.
.	.	.	.	.	.	16bb\JJ	.
=51	=51	=51	=51	=51	=51	=51	=51
8F#\	p	8c#\	p	8f#/	p	8aa#\	p
8r	.	4r	.	8r	.	16.r	.
.	.	.	.	.	.	32f#/	.
16r	.	.	.	(8dd\L	.	(8ff#\L	.
16FF#'/LL	.	.	.	.	.	.	.
16GG#'/	.	(8F#/	.	[8cc#\J)	.	[8ee\J)	.
16AA#'/JJ	.	.	.	.	.	.	.
=52	=52	=52	=52	=52	=52	=52	=52
8BB/L	.	4.f#\)	.	(8cc#\L]	.	(8ee\L]	.
8BB/J	.	.	.	16b\Jk)	.	16dd\k)	.
.	.	.	.	16r	.	32r	.
.	.	.	.	.	.	32f#\Jkk	.
16r	.	.	.	(8dd\L	.	(8ff#\L	.
16FF#'/LL	.	.	.	.	.	.	.
16GG#'/	.	(8F#/	.	[8cc#\J)	.	[8ee\J)	.
16AA#'/JJ	.	.	.	.	.	.	.
=53	=53	=53	=53	=53	=53	=53	=53
8BB/L	.	4.f#\)	.	(8cc#\L]	.	(8ee\L]	.
8BB/J	.	.	.	16b\Jk)	.	16dd\k)	.
.	.	.	.	16r	.	32r	.
.	.	.	.	.	.	32f#\Jkk	.
16r	.	.	.	(8dd\L	.	(8ff#\L	.
16FF#'/LL	<	.	.	.	.	.	.
16GG#'/	.	(8F#/	<	[8cc#\J)	<	[8ee\J)	<
16AA#'/JJ	.	.	.	.	.	.	.
=54	=54	=54	=54	=54	=54	=54	=54
8BB/L	.	4f#\)	.	(8cc#\L]	.	(8ee\L]	.
8BB/J	.	.	.	8b\J)	.	8dd\J)	.
4A\	.	4f#\	.	4ccn\	.	4dd#\	.
=55	=55	=55	=55	=55	=55	=55	=55
(8G\L	.	(8g\L	.	8b/L	.	(16.ee\LL	.
.	.	.	.	.	.	32b\k	.
16.E\L	.	16.G\L	.	(16.b/L	.	16.gg\	.
32G\JJk)	.	32B\JJk)	.	32g/JJk)	.	32ee\JJk)	.
8A\L	.	8A/L	.	8f#/L	.	8dd#\L	.
8AA\J	.	8A/J	.	8g/J	.	8cc#\J	.
=56	=56	=56	=56	=56	=56	=56	=56
4D\	.	8A/	.	8f#/	.	8dd\	.
.	.	8r	.	16.r	.	4r	.
.	.	.	.	32f#/	.	.	.
16r	.	(8d\L	.	(8ff#\L	.	.	.
16FF#'/LL	.	.	.	.	.	.	.
16GG#'/	.	[8c#\J)	.	[8ee\J)	.	[8ff#\	.
16AA#'/JJ	.	.	.	.	.	.	.
=57	=57	=57	=57	=57	=57	=57	=57
8BB/L	.	(8c#/L]	.	(8ee\L]	.	(16ff#\LL]	.
.	.	.	.	.	.	16aa#\	.
8BB/J	.	16B/Jk)	.	16dd\k)	.	16bb\	.
.	.	16r	.	32r	.	16gg\JJ)	.
.	.	.	.	32f#\Jkk	.	.	.
16r	.	(8d\L	.	(8ff#\L	.	8ff#'\L	<
16FF#'/LL	<	.	.	.	.	.	.
16GG#'/	.	[8c#\J)	<	[8ee\J)	<	[8ff#\J	.
16AA#'/JJ	.	.	.	.	.	.	.
=58	=58	=58	=58	=58	=58	=58	=58
8BB/L	.	(8c#/L]	.	(8ee\L]	.	(16ff#\LL]	.
.	.	.	.	.	.	16aa#\	.
8BB/J	.	16B/Jk)	.	16dd\k)	.	16bb\	.
.	.	16r	.	32r	.	16gg\JJ)	.
.	.	.	.	32f#\Jkk	.	.	.
16r	.	(8d\L	.	(8ff#\L	.	8ff#\L	.
16FF#'/LL	.	.	.	.	.	.	.
16GG#'/	.	[8c#\J)	.	[8ee\J)	.	[8ff#\J	.
16AA#'/JJ	.	.	.	.	.	.	.
=59	=59	=59	=59	=59	=59	=59	=59
8BB/L	.	(8c#/L]	.	(8ee\L]	.	(16ff#\LL]	.
.	.	.	.	.	.	16bb\	.
8BB/J	.	16B/Jk)	.	8dd\J)	.	16aa#\	.
.	.	16r	.	.	.	16bb\JJ)	.
(4AAn/	.	(4F#/	.	(4dd#\	.	[4cccn\	.
=60	=60	=60	=60	=60	=60	=60	=60
16GGn/LL)	.	16G/LL)	.	8ee\)	.	(16ccc\LL]	.
(16EE/	.	(16G/	.	.	.	16bb\	.
16FF#/	.	16A/	.	16r	.	32aan\L	.
.	.	.	.	.	.	32gg\	.
16GG/JJ)	.	16B/JJ)	.	16b\	.	32ff#\	.
.	.	.	.	.	.	32ee\JJJ)	.
8AA/L	.	8A/L	.	8f#/L	.	8dd\L	.
8AA/J	.	8A/J	.	8g/J	.	8cc#\J	.
=61	=61	=61	=61	=61	=61	=61	=61
8DD/	p	16D'/LL	p	8f#/	p	8dd\	.
.	.	(16A/	.	.	.	.	.
8r	.	16d/	.	8r	.	4.r	.
.	.	16A/JJ)	.	.	.	.	.
8G\	.	16r	.	24e'/LL	.	.	.
.	.	.	.	24f#'/	.	.	.
.	.	(16A/LL	.	.	.	.	.
.	.	.	.	24g'/	.	.	.
8r	.	16c#/	.	24a'/	.	.	.
.	.	.	.	24b'/	.	.	.
.	.	16A/JJ)	.	.	.	.	.
.	.	.	.	24cc#'/JJ	.	.	.
=62	=62	=62	=62	=62	=62	=62	=62
8F#\	.	16r	.	(16.dd\LL	.	2r	.
.	.	(16A/LL	.	.	.	.	.
.	.	.	.	32a\Jk)	.	.	.
8r	.	16d/	.	8ff#'\J	.	.	.
.	.	16A/JJ)	.	.	.	.	.
8C#/	.	16r	.	(16.ee\LL	.	.	.
.	.	(16A/LL	.	.	.	.	.
.	.	.	.	32a\Jk)	.	.	.
8r	.	16e/	.	8gg'\J	.	.	.
.	.	16A/JJ)	.	.	.	.	.
=63	=63	=63	=63	=63	=63	=63	=63
8D\	.	16r	.	(16.ff#\LL	.	4r	p
.	.	(16A\LL	.	.	.	.	.
.	.	.	.	32a\Jk)	.	.	.
8r	.	16f#\	.	8aa'\J	.	.	.
.	.	16A\JJ)	.	.	.	.	.
8G\	.	16c#'/LL	.	16e'/LL	.	24ee'\LL	.
.	.	.	.	.	.	24ff#'\	.
.	.	16A'/	.	16a'/	.	.	.
.	.	.	.	.	.	24gg'\	.
8r	.	16c#'/	.	16e'/	.	24aa'\	.
.	.	.	.	.	.	24bb'\	.
.	.	16A'/JJ	.	16a'/JJ	.	.	.
.	.	.	.	.	.	24ccc#'\JJ	.
=64	=64	=64	=64	=64	=64	=64	=64
8F#\	.	16d'/LL	.	16f#'/LL	.	16ddd\LL	.
.	.	16A'/	.	16a'/	.	(16ddd\	.
8r	.	16d'/	.	16f#'/	.	16aa\	.
.	.	16A'/JJ	.	16a'/JJ	.	16fff#\JJ)	.
8AA/	.	16c#'/LL	.	16g'/LL	.	16eee\LL	.
.	.	16A'/	.	16a'/	.	(16eee\	.
8r	.	16e'/	.	16g'/	.	16ccc#\)	.
.	.	16A'/JJ	.	16a'/JJ	.	16ggg\JJ	.
=65	=65	=65	=65	=65	=65	=65	=65
8DD/	.	16d'/LL	.	16f#'/LL	.	16fff#\LL	.
.	.	16A'/	.	16a'/	.	(16fff#\	.
8r	.	16d'/	.	16f#'/	.	16ddd\	.
.	.	16A'/JJ	.	16a'/JJ	.	16aaa\JJ)	.
8G\	.	16r	.	24e'/LL	.	4r	.
.	.	.	.	24f#'/	.	.	.
.	.	(16A/LL	.	.	.	.	.
.	.	.	.	24g'/	.	.	.
8r	.	16c#/	.	24a'/	.	.	.
.	.	.	.	24b'/	.	.	.
.	.	16A/JJ)	.	.	.	.	.
.	.	.	.	24cc#'/JJ	.	.	.
=66	=66	=66	=66	=66	=66	=66	=66
8F#\	.	16r	.	16dd'\LL	.	2r	.
.	.	(16A/LL	.	(16dd\	.	.	.
8r	.	16d/	.	16a\	.	.	.
.	.	16A/JJ)	.	16ff#\JJ)	.	.	.
8C#/	.	16r	.	16ee'\LL	.	.	.
.	.	(16A/LL	.	(16ee\	.	.	.
8r	.	16e/	.	16a\	.	.	.
.	.	16A/JJ)	.	16gg\JJ)	.	.	.
=67	=67	=67	=67	=67	=67	=67	=67
4D\	.	16r	.	16ff#'\LL	.	4r	.
.	.	(16A\LL	.	(16ff#\	.	.	.
.	.	16f#\	.	16a\	.	.	.
.	.	16A\JJ)	.	16aa\JJ)	.	.	.
4G\	.	16c#'/LL	.	16e'/LL	.	24ee'\LL	.
.	.	.	.	.	.	24ff#'\	.
.	.	16A'/	.	16a'/	.	.	.
.	.	.	.	.	.	24gg'\	.
.	.	16c#'/	.	16e'/	.	24aa'\	.
.	.	.	.	.	.	24bb'\	.
.	.	16A'/JJ	.	16a'/JJ	.	.	.
.	.	.	.	.	.	24ccc#'\JJ	.
=68	=68	=68	=68	=68	=68	=68	=68
4F#\	.	8a\	.	8f#\L	.	24ddd'\LL	.
.	.	.	.	.	.	24eee'\	.
.	.	.	.	.	.	24ddd'\	.
.	.	4.r	.	8ff#\J	.	24aa#'\	.
.	.	.	.	.	.	24bb'\	.
.	.	.	.	.	.	24aa#'\JJ	.
4r	.	.	.	8gg'\L	.	24bb'\LL	.
.	.	.	.	.	.	24ccc'\	.
.	.	.	.	.	.	24bb'\	.
.	.	.	.	8dd#'\J	.	24ff#'\	.
.	.	.	.	.	.	24gg'\	.
.	.	.	.	.	.	24ff#'\JJ	.
=69	=69	=69	=69	=69	=69	=69	=69
2r	.	2r	.	8ee'\L	.	24gg\LL	.
.	.	.	.	.	.	24aa\	.
.	.	.	.	.	.	24gg\	.
.	.	.	.	8cc'\J	.	24dd#\	.
.	.	.	.	.	.	24ee\	.
.	.	.	.	.	.	24dd#\JJ	.
.	.	.	.	8cc#'\L	.	24ee\LL	.
.	.	.	.	.	.	24ff#\	.
.	.	.	.	.	.	24ee\	.
.	.	.	.	8b'\J	.	24ddn\	.
.	.	.	.	.	.	24ee\	.
.	.	.	.	.	.	24dd\JJ	.
=70	=70	=70	=70	=70	=70	=70	=70
8r	.	8r	.	8a'/L	.	24cc#\LL	.
.	.	.	.	.	.	24dd\	.
.	.	.	.	.	.	24cc#\	.
8AA'/	.	8C#'/	.	8g'/J	.	24b\	.
.	.	.	.	.	.	24cc#\	.
.	.	.	.	.	.	24b\JJ	.
8BB'/L	.	8D'/L	.	8f#'/L	.	24a/LL	.
.	.	.	.	.	.	24b/	.
.	.	.	.	.	.	24a/	.
8C#'/J	.	8E'/J	.	8e'/J	.	24g/	.
.	.	.	.	.	.	24a/	.
.	.	.	.	.	.	24g/JJ	.
=71	=71	=71	=71	=71	=71	=71	=71
8D'/L	<	8F#/	<	8d/	<	16f#\LL	<
.	.	.	.	.	.	16ff#\	.
8C'/J	.	4D/	.	4d/	.	16f#\	.
.	.	.	.	.	.	16ff#\JJ	.
8BB'/L	.	.	.	.	.	16g\LL	.
.	.	.	.	.	.	16gg\	.
8FF#'/J	.	(8c\	.	[8d/	.	16a\	.
.	.	.	.	.	.	16aa\JJ	.
=72	=72	=72	=72	=72	=72	=72	=72
8GG'/L	.	8B/L)	.	8d/]	.	16b\LL	.
.	.	.	.	.	.	16bb\	.
8EE'/J	.	8G'/	.	4a/	.	16cc#\	.
.	.	.	.	.	.	16ccc#\JJ	.
8FF#'/L	.	8A'/	.	.	.	16dd\LL	.
.	.	.	.	.	.	16ddd\	.
8CC#'/J	.	(8g/J	.	[8a/	.	16ee\	.
.	.	.	.	.	.	16eee\JJ	.
=73	=73	=73	=73	=73	=73	=73	=73
8DD'/L	.	8f#\)	.	8a/]	.	16ff#\LK	.
.	.	.	.	.	.	8fff#'\	.
8AA#'/J	.	4d\	.	4f#/	.	.	.
.	.	.	.	.	.	8fff#'\	.
8BB'/L	.	.	.	.	.	.	.
.	.	.	.	.	.	8fff#'\	.
8GG#'/J	.	[8d\	.	[8f#/	.	.	.
.	.	.	.	.	.	[16fff#\Jk	.
=74	=74	=74	=74	=74	=74	=74	=74
8AA'/L	.	8d\]	.	8f#/]	.	16fff#\LK]	.
.	.	.	.	.	.	8fff#\	.
8AA#'/J	.	4d\	.	4f#/	.	.	.
.	.	.	.	.	.	[16fff#\Jk	.
8BB'/L	.	.	.	.	.	16fff#\LK]	.
.	.	.	.	.	.	8fff#\	.
8GG#'/J	.	[8d\	.	[8f#/	.	.	.
.	.	.	.	.	.	[16fff#\Jk	.
=75	=75	=75	=75	=75	=75	=75	=75
[2AA/	.	8d\]	.	8f#/]	.	8fff#\L]	.
.	.	(8d\L	.	(8dd\L	.	24ff#\L	.
.	.	.	.	.	.	24dd\	.
.	.	.	.	.	.	24ff#\JJ	.
.	.	8c#\	.	8cc#\	.	24gg\LL	.
.	.	.	.	.	.	24ee\	.
.	.	.	.	.	.	24gg\	.
.	.	8B\J	.	8b\J	.	24gg#\	.
.	.	.	.	.	.	24ee#\	.
.	.	.	.	.	.	24gg#\JJ	.
=76	=76	=76	=76	=76	=76	=76	=76
8AA/]	.	8A'/)	.	8a'/)	.	24aa\LL	.
.	.	.	.	.	.	24ff#\	.
.	.	.	.	.	.	24aa\	.
(8D/L	.	(8d\L	.	(8d/L	.	24ff#\	.
.	.	.	.	.	.	24dd\	.
.	.	.	.	.	.	24ff#\JJ	.
8C#/	.	8c#\	.	8c#/	.	24gg\LL	.
.	.	.	.	.	.	24ee\	.
.	.	.	.	.	.	24gg\	.
8BB/J	.	8B\J	.	8B/J	.	24gg#\	.
.	.	.	.	.	.	24ee#\	.
.	.	.	.	.	.	24gg#\JJ	.
=77	=77	=77	=77	=77	=77	=77	=77
8AA'/)	.	8A'/)	.	8A'/)	.	24aa\LL	p
.	.	.	.	.	.	24ff#\	.
.	.	.	.	.	.	24aa\JJ	.
8r	.	8r	.	8r	.	8r	.
4r	.	4r	.	4r	.	8r	.
.	.	.	.	.	.	8a/	.
=78	=78	=78	=78	=78	=78	=78	=78
2r	.	8r	p	8r	p	(4dd\	.
.	.	8b'\	.	4dd\	.	.	.
.	.	8g'\L	.	.	.	16ee\LL	.
.	.	.	.	.	.	16ff#\	.
.	.	8a'\J	.	8cc#'\	.	16gg\	.
.	.	.	.	.	.	16ee\JJ)	.
=79	=79	=79	=79	=79	=79	=79	=79
2r	.	8f#'\L	.	8dd'\L	.	(4aa\	.
.	.	8d'\J	.	8ff#'\J	.	.	.
.	.	4r	.	4r	.	8ddd\L)	.
.	.	.	.	.	.	8A\J	.
=80	=80	=80	=80	=80	=80	=80	=80
8r	p	8r	.	8r	.	(4d/	.
8BB'/	.	4D/	.	8f#'/	.	.	.
8GG'/L	.	.	.	8b'/L	.	16e/LL	.
.	.	.	.	.	.	16f#/	.
8AA'/J	.	8C#'/	.	8g'/J	.	16g/	.
.	.	.	.	.	.	16e/JJ)	.
=81	=81	=81	=81	=81	=81	=81	=81
4DD/	.	4D/	.	4f#/	.	4d/	.
4r	.	4r	.	4r	.	4r	.
=82:|!	=82:|!	=82:|!	=82:|!	=82:|!	=82:|!	=82:|!	=82:|!
*>B	*>B	*>B	*>B	*>B	*>B	*>B	*>B
2r	.	2r	.	2r	.	8a/	p
.	.	.	.	.	.	8r	.
.	.	.	.	.	.	4r	.
=83	=83	=83	=83	=83	=83	=83	=83
2r	.	8r	p	8r	p	(4dd\	.
.	.	8b-'\	.	4dd\	.	.	.
.	.	8g'\L	.	.	.	16ee\LL	.
.	.	.	.	.	.	16ffn\	.
.	.	8a'\J	.	8cc#'\	.	16gg\	.
.	.	.	.	.	.	16ee\JJ)	.
=84	=84	=84	=84	=84	=84	=84	=84
2r	.	8fn'\L	.	8ddn'\L	f	(4aa\	f
.	.	8d'\J	.	8ff#'\J	.	.	.
.	.	4r	.	8r	.	8ddd\L)	.
.	.	.	.	8a/	.	8aa\J	.
=85	=85	=85	=85	=85	=85	=85	=85
8r	f	8r	f	(4dd\	.	(4ddd\	.
8B-'\	.	4d\	.	.	.	.	.
8G'\L	.	.	.	16ee\LL	.	16eee\LL	.
.	.	.	.	16ffn\	.	16fffn\	.
8A'\J	.	8c#'\	.	16gg\	.	16ggg\	.
.	.	.	.	16ee\JJ)	.	16eee\JJ)	.
=86	=86	=86	=86	=86	=86	=86	=86
8D\	.	8d\	.	8dd\	.	8ddd\	.
8r	.	8r	.	8r	.	8r	.
4r	.	4r	.	4r	.	4r	.
=87	=87	=87	=87	=87	=87	=87	=87
4AA'/	f	4A'/	f	4A'/	f	4A'/	f
4AA'/	.	4A'/	.	4A'/	.	4A'/	.
=88	=88	=88	=88	=88	=88	=88	=88
4.D\	p	4.d\	p	4.d/	.	4.d/	p
8D\	.	(16Fn/LL	.	8r	.	(16fn/LL	.
.	.	16A/JJ)	.	.	.	16d/JJ)	.
=89	=89	=89	=89	=89	=89	=89	=89
8E'\L	.	(16G/LL	.	8r	pp	(16d/LL	.
.	.	16A/)	.	.	.	16c#/)	.
8E'\J	.	(16G/	.	8a/	.	(16e/	.
.	.	16A/JJ)	.	.	.	16c#/JJ)	.
8D'\L	.	(16Fn/LL	.	8r	.	(16e/LL	.
.	.	16A/)	.	.	.	16d/)	.
8D'\J	.	(16F/	.	8a/	.	(16fn/	.
.	.	16A/JJ)	.	.	.	16d/JJ)	.
=90	=90	=90	=90	=90	=90	=90	=90
4AA/	.	8E/	.	8r	.	8a/	.
.	.	8r	.	8a/	.	8r	.
4r	.	4r	.	4r	.	4r	.
=91	=91	=91	=91	=91	=91	=91	=91
4FFn'/	f	4Fn'/	f	4fn'/	.	2r	.
4FF'/	.	4F'/	.	4f'/	.	.	.
=92	=92	=92	=92	=92	=92	=92	=92
4.BB-/	.	4.B-/	p	4.b-\	.	4r	p
.	.	.	.	.	.	8r	.
8r	.	8B-/	.	(16d/LL	.	(16dd\LL	.
.	.	.	.	16fn/JJ)	.	16b-\JJ)	.
=93	=93	=93	=93	=93	=93	=93	=93
2r	.	8c'\L	.	(16e-/LL	.	(16b-/LL	.
.	.	.	.	16fn/)	.	16a/)	.
.	.	8c'\J	.	(16e-/	.	(16cc/	.
.	.	.	.	16f/JJ)	.	16a/JJ)	.
.	.	8B-'/L	.	(16d/LL	.	(16cc\LL	.
.	.	.	.	16f/)	.	16b-\)	.
.	.	8B-'/J	.	(16d/	.	(16dd\	.
.	.	.	.	16f/JJ)	.	16b-\JJ)	.
=94	=94	=94	=94	=94	=94	=94	=94
8r	p	8A/	.	(16c/LL	.	8ffn\	.
.	.	.	.	16fn/JJ)	.	.	.
8FFn/	.	4r	.	4r	.	4r	.
8C/	.	.	.	.	.	.	.
8r	.	8c\	.	(16e-/LL	.	(16ee-\LL	.
.	.	.	.	16g/JJ)	.	16cc\JJ)	.
=95	=95	=95	=95	=95	=95	=95	=95
2r	.	8d'\L	.	(16fn/LL	.	(16cc\LL	.
.	.	.	.	16g/)	.	16b\)	.
.	.	8d'\J	.	(16f/	.	(16dd\	.
.	.	.	.	16g/JJ)	.	16b\JJ)	.
.	.	8c'\L	.	(16d-/LL	.	(16dd\LL	.
.	.	.	.	16g/)	.	16cc\)	.
.	.	8c'\J	.	(16d-/	.	(16dd-\	.
.	.	.	.	16g/JJ)	.	16cc\JJ)	.
=96	=96	=96	=96	=96	=96	=96	=96
8r	p	4B/	f	(16d/LL	.	8gg\	.
.	.	.	.	16g/JJ)	.	.	.
8GG'/L	.	.	.	4.r	.	4.r	.
8E-/J	.	8r	.	.	.	.	.
(16G\LL	.	(16g\LL	.	.	.	.	.
16E-\JJ)	.	16e-\JJ)	.	.	.	.	.
=97	=97	=97	=97	=97	=97	=97	=97
(16E-\LL	.	(16e-\LL	.	2r	.	2r	.
16D\)	.	16d\)	.	.	.	.	.
(16Fn\	.	(16fn\	.	.	.	.	.
16D\JJ)	.	16d\JJ)	.	.	.	.	.
(16F\LL	.	(16f\LL	.	.	.	.	.
16E-\)	.	16e-\)	.	.	.	.	.
(16G\	.	(16g\	.	.	.	.	.
16E-\JJ)	.	16e-\JJ)	.	.	.	.	.
=98	=98	=98	=98	=98	=98	=98	=98
4B-\	p	4b-\	.	4.r	p	8r	p
.	.	.	.	.	.	8b-'\L	.
8r	.	8r	.	.	.	8bb-'\J	.
16G\LL	.	16B-\LL	.	16e-/LL	.	8r	.
16E-\JJ	.	16e-\JJ	.	16g/JJ	.	.	.
=99	=99	=99	=99	=99	=99	=99	=99
4B-\	.	4d\	.	4fn/	.	8r	.
.	.	.	.	.	.	8b-'\L	.
8r	.	8r	.	8r	.	8bb-'\J	.
16GG/LL	.	16B-/LL	.	16e-/LL	.	8r	.
16EE-/JJ	.	16G/JJ	.	16g/JJ	.	.	.
=100	=100	=100	=100	=100	=100	=100	=100
8BB-'/L	.	8Fn'/L	.	8d'/L	.	8r	.
(16GG/L	<	(16B-/L	<	(16e-/L	<	(16b-\LL	<
16EE-/JJ)	.	16G/JJ)	.	16g/JJ)	.	16bb-\JJ)	.
8BB-'/L	.	8F'/L	.	8d'/L	.	8r	.
(16GG/L	.	(16B-/L	.	(16e-/L	.	(16b-\LL	.
16EE-/JJ)	.	16G/JJ)	.	16g/JJ)	.	16bb-\JJ)	.
=101	=101	=101	=101	=101	=101	=101	=101
8BB-/	.	8Fn/	.	8d/	.	8r	.
8r	.	8r	.	8r	.	(16b-\LL	.
.	.	.	.	.	.	16bb-\JJ)	.
4r	.	4r	.	4r	.	8r	.
.	.	.	.	.	.	8b-\	.
=102	=102	=102	=102	=102	=102	=102	=102
2E-\	f	2G/	f	2B-/	f	4G/ 4e-/ 4b-/ 4gg/	f
.	.	.	.	.	.	(32ffn\LLL	.
.	.	.	.	.	.	32ee-\	.
.	.	.	.	.	.	32dd\	.
.	.	.	.	.	.	32ee-\	.
.	.	.	.	.	.	32dd\	.
.	.	.	.	.	.	32ee-\	.
.	.	.	.	.	.	32gg\	.
.	.	.	.	.	.	32ee-\JJJ)	.
=103	=103	=103	=103	=103	=103	=103	=103
4Fn\	.	4A-/	.	4d/	.	4b-\	.
8r	.	8r	.	8r	.	8r	.
16.r	.	16.r	.	16.r	.	16.r	.
32F\	.	32A-/	.	32b-\	.	32b-\	.
=104	=104	=104	=104	=104	=104	=104	=104
8..G\L	.	8B-/L	.	8e-/L	.	8ee-\L	.
.	.	16.r	.	16.r	.	16.r	.
32G\Jkk	.	32B-/Jkk	.	32e-/Jkk	.	32ee-\Jkk	.
8E-\L	.	8e-\L	.	8B-/L 8g/	.	8gg\L	.
16.r	.	16.r	.	16.r	.	16.r	.
32E-\Jkk	.	32e-\Jkk	.	32B-/Jkk 32g/	.	32gg\Jkk	.
=105	=105	=105	=105	=105	=105	=105	=105
8BB-/	.	8d\	.	8B-/ 8fn/	.	8bb-\	.
8r	.	8r	.	8r	.	8r	.
4r	.	4r	.	4r	.	4r	.
=106	=106	=106	=106	=106	=106	=106	=106
8..G\L	pp	2r	.	2r	.	2e-/	pp
32G\Jkk	.	.	.	.	.	.	.
8..E-\L	.	.	.	.	.	.	.
32E-\Jkk	.	.	.	.	.	.	.
=107	=107	=107	=107	=107	=107	=107	=107
8..BB-/L	.	(2e-\	pp	2r	.	[2fn/	.
32BB-/Jkk	.	.	.	.	.	.	.
8..B-\L	.	.	.	.	.	.	.
32B-\Jkk	.	.	.	.	.	.	.
=108	=108	=108	=108	=108	=108	=108	=108
8..A-\L	.	4d\	.	2r	.	(16f/LL]	.
.	.	.	.	.	.	16g/)	.
.	.	.	.	.	.	16a-'/	.
.	.	.	.	.	.	16an'/JJ	.
32A-\Jkk	.	.	.	.	.	.	.
8..Fn\L	.	[4a-\)	.	.	.	16b-'/LL	.
.	.	.	.	.	.	16a'/	.
.	.	.	.	.	.	16b-'/	.
.	.	.	.	.	.	16a'/JJ	.
32F\Jkk	.	.	.	.	.	.	.
=109	=109	=109	=109	=109	=109	=109	=109
8..E-\L	.	(4a-\]	.	2r	.	[2b-\	.
32E-\Jkk	.	.	.	.	.	.	.
8..e-\L	.	[4g\)	.	.	.	.	.
32e-\Jkk	.	.	.	.	.	.	.
=110	=110	=110	=110	=110	=110	=110	=110
8..d-\L	.	4g\]	.	2r	.	(16b-\LL]	.
.	.	.	.	.	.	16cc\)	.
.	.	.	.	.	.	16dd-'\	.
.	.	.	.	.	.	16ddn'\JJ	.
32d-\Jkk	.	.	.	.	.	.	.
8..B-\L	.	(8.dd-\L	.	.	.	16ee-'\LL	.
.	.	.	.	.	.	16dd'\	.
.	.	.	.	.	.	16ee-'\	.
.	.	16g\Jk)	.	.	.	16dd'\JJ	.
32B-\Jkk	.	.	.	.	.	.	.
=111	=111	=111	=111	=111	=111	=111	=111
8..c\L	.	(4a-\	.	2r	.	[2ee-\	.
32c\Jkk	.	.	.	.	.	.	.
8..B-\L	.	4g\)	.	.	.	.	.
32B-\Jkk	.	.	.	.	.	.	.
=112	=112	=112	=112	=112	=112	=112	=112
8..A-\L	.	[2fn\	.	4r	pp	2ee-\]	.
32A-\Jkk	.	.	.	.	.	.	.
8..An\L	.	.	.	(4cc\	.	.	.
32A\Jkk	.	.	.	.	.	.	.
=113	=113	=113	=113	=113	=113	=113	=113
8B-\L	.	8fn\]	.	2b-\)	.	8dd\L	.
8BB-\J	.	4.r	.	.	.	16.r	.
.	.	.	.	.	.	32ddd\Jkk	.
8r	.	.	.	.	.	8bb-\L	.
8D\	.	.	.	.	.	16.r	.
.	.	.	.	.	.	32bb-\Jkk	.
=114	=114	=114	=114	=114	=114	=114	=114
8r	.	(2b-\	.	[2cc\	.	8ffn\L	.
8Fn\	.	.	.	.	.	16.r	.
.	.	.	.	.	.	32ff\Jkk	.
8r	.	.	.	.	.	8fffn\L	.
8FFn/	.	.	.	.	.	16.r	.
.	.	.	.	.	.	32fff\Jkk	.
=115	=115	=115	=115	=115	=115	=115	=115
8r	.	2a\)	.	(16cc\LL]	.	8eee-\L	.
.	.	.	.	16dd\)	.	.	.
8Fn\	.	.	.	16ee-'\	.	16.r	.
.	.	.	.	16een'\JJ	.	.	.
.	.	.	.	.	.	32eee-\Jkk	.
8r	.	.	.	16ffn'\LL	.	8ccc\L	.
.	.	.	.	16ee'\	.	.	.
8FFn/	.	.	.	16ff'\	.	16.r	.
.	.	.	.	16ee'\JJ	.	.	.
.	.	.	.	.	.	32ccc\Jkk	.
=116	=116	=116	=116	=116	=116	=116	=116
8r	.	(16b-\LL	.	[2ffn\	.	8ddd-\L	.
.	.	16a\)	.	.	.	.	.
8BB-/	.	16b-'\	.	.	.	16.r	.
.	.	16cc'\JJ	.	.	.	.	.
.	.	.	.	.	.	32ddd-\Jkk	.
8r	.	16dd-'\LL	.	.	.	8bb-\L	.
.	.	16cc'\	.	.	.	.	.
8B-\	.	16dd-'\	.	.	.	16.r	.
.	.	16cc'\JJ	.	.	.	.	.
.	.	.	.	.	.	32bb-\Jkk	.
=117	=117	=117	=117	=117	=117	=117	=117
8r	.	4.b-\	.	(16ff\LL]	.	8gg\L	.
.	.	.	.	16ee\)	.	.	.
8c\	.	.	.	16bb-'\	.	16.r	.
.	.	.	.	16gg'\JJ	.	.	.
.	.	.	.	.	.	32gg\Jkk	.
8r	.	.	.	16ee'\LL	.	8ccc\L	.
.	.	.	.	16cc'\	.	.	.
8C/	.	8E/	.	16b-'\	.	16.r	.
.	.	.	.	16g'\JJ	.	.	.
.	.	.	.	.	.	32ccc\Jkk	.
=118	=118	=118	=118	=118	=118	=118	=118
8FFn/	.	2Fn/	.	8a-/L	.	8ffn\L	.
8r	.	.	.	16.r	.	8fn\J	.
.	.	.	.	32a-/Jkk	.	.	.
4r	.	.	.	8fn/L	.	8r	.
.	.	.	.	16.r	.	8aa-\	.
.	.	.	.	32f/Jkk	.	.	.
=119	=119	=119	=119	=119	=119	=119	=119
16d-'\LL	.	[2G/	.	8e/L	.	8r	.
16c'\	.	.	.	.	.	.	.
16d-'\	.	.	.	16.r	.	8bb-\	.
16c'\JJ	.	.	.	.	.	.	.
.	.	.	.	32e/Jkk	.	.	.
16d-'\LL	.	.	.	8b-\L	.	8r	.
16c'\	.	.	.	.	.	.	.
16d-'\	.	.	.	16.r	.	8ee\	.
16c'\JJ	.	.	.	.	.	.	.
.	.	.	.	32b-\Jkk	.	.	.
=120	=120	=120	=120	=120	=120	=120	=120
4B-\	.	16G/LL]	.	8dd-\L	.	8r	.
.	.	16A/	.	.	.	.	.
.	.	16B-/	.	16.r	.	8ee\	.
.	.	16A/JJ	.	.	.	.	.
.	.	.	.	32dd-\Jkk	.	.	.
4r	.	16B-/LL	.	8e/L	.	8r	.
.	.	16A/	.	.	.	.	.
.	.	16B-/	.	16.r	.	8ddd-\	.
.	.	16A/JJ	.	.	.	.	.
.	.	.	.	32e/Jkk	.	.	.
=121	=121	=121	=121	=121	=121	=121	=121
16e-\LL	.	(4B-/	.	8g-/L	.	8r	.
16dn\	.	.	.	.	.	.	.
16e-\	.	.	.	16.r	.	8ccc\	.
16d\JJ	.	.	.	.	.	.	.
.	.	.	.	32g-/Jkk	.	.	.
16e-\LL	.	[4A/)	.	8fn/L	.	8r	.
16d\	.	.	.	.	.	.	.
16e-\	.	.	.	16.r	.	8ccc\	.
16d-\JJ	.	.	.	.	.	.	.
.	.	.	.	32f/Jkk	.	.	.
=122	=122	=122	=122	=122	=122	=122	=122
4c\	.	(16A/LL]	.	8ee-\L	.	8r	.
.	.	16Bn/)	.	.	.	.	.
.	.	16c'/	.	16.r	.	8ff#\	.
.	.	16B'/JJ	.	.	.	.	.
.	.	.	.	32ee-\Jkk	.	.	.
8r	.	16c'/LL	.	8dd\L	.	8r	.
.	.	16A'/	.	.	.	.	.
8DD/	.	16F#'/	.	16.r	.	8ccc\	.
.	.	16D'/JJ	.	.	.	.	.
.	.	.	.	32cc\Jkk	.	.	.
=123	=123	=123	=123	=123	=123	=123	=123
2GG/	.	8B-/L	.	16b-'/LL	.	16bb-'\LL	.
.	.	.	.	16g'/	.	16gg'\	.
.	.	16.r	.	16g'/JJ	.	16gg'\JJ	.
.	.	.	.	16r	.	16r	.
.	.	32B-/Jkk	.	.	.	.	.
.	.	8G/L	.	16r	.	16r	.
.	.	.	.	16b-'\LL	.	16bb-'\LL	.
.	.	16.r	.	16b-'\JJ	.	16bb-'\JJ	.
.	.	.	.	16r	.	16r	.
.	.	32G/Jkk	.	.	.	.	.
=124	=124	=124	=124	=124	=124	=124	=124
[2AA/	.	8F#/L	.	16r	.	16r	.
.	.	.	.	16dd-'\LL	.	16ccc#'\LL	.
.	.	16.r	.	16dd-'\JJ	.	16ccc#'\JJ	.
.	.	.	.	16r	.	16r	.
.	.	32F#/Jkk	.	.	.	.	.
.	.	8c\L	.	16r	.	16r	.
.	.	.	.	16ddn'\LL	.	16ddd'\LL	.
.	.	16.r	.	16dd'\JJ	.	16ddd'\JJ	.
.	.	.	.	16r	.	16r	.
.	.	32c\Jkk	.	.	.	.	.
=125	=125	=125	=125	=125	=125	=125	=125
(16AA/LL]	.	8e-\L	.	16r	.	16r	.
16BBn/)	<	.	.	16f#/LL	<	16ff#\LL	<
16C/	.	16.r	<	16f#/JJ	.	16ff#\JJ	.
16BB/JJ	.	.	.	16r	.	16r	.
.	.	32e-\Jkk	.	.	.	.	.
16C/LL	.	8F#/L	.	16r	.	16r	.
16BB/	.	.	.	16ee-\LL	.	16eee-\LL	.
16C/	.	16.r	.	16ee-\JJ	.	16eee-\JJ	.
16BB/JJ	.	.	.	16r	.	16r	.
.	.	32F#/Jkk	.	.	.	.	.
=126	=126	=126	=126	=126	=126	=126	=126
(4C/	.	8A-/L	.	16r	.	16r	.
.	.	.	.	16dd\LL	.	16ddd\LL	.
.	.	16.r	.	16dd\JJ	.	16ddd\JJ	.
.	.	.	.	16r	.	16r	.
.	.	32A-/Jkk	.	.	.	.	.
[4BB/)	.	8G/L	.	16r	.	16r	.
.	.	.	.	16ffn\LL	.	16fffn\LL	.
.	.	16.r	.	16ff\JJ	.	16fff\JJ	.
.	.	.	.	16r	.	16r	.
.	.	32G/Jkk	.	.	.	.	.
=127	=127	=127	=127	=127	=127	=127	=127
(16BB/LL]	.	8fn\L	.	16r	.	16r	.
16C/)	.	.	.	16g#/LL	.	16gg#\LL	.
16D/	.	16.r	.	16g#/JJ	.	16gg#\JJ	.
16C#/JJ	.	.	.	16r	.	16r	.
.	.	32f\Jkk	.	.	.	.	.
16D/LL	.	8G#/L	.	16r	.	16r	.
16C#/	.	.	.	16ffn\LL	.	16fffn\LL	.
16D/	.	16.r	.	16ff\JJ	.	16fff\JJ	.
16C#/JJ	.	.	.	16r	.	16r	.
.	.	32G#/Jkk	.	.	.	.	.
=128	=128	=128	=128	=128	=128	=128	=128
(4D\	.	8B-/L	.	16r	.	16r	.
.	.	.	.	16ee\LL	.	16eeen\LL	.
.	.	16.r	.	16ee\JJ	.	16eee\JJ	.
.	.	.	.	16r	.	16r	.
.	.	32B-/Jkk	.	.	.	.	.
[4C#/)	.	8An/L	.	16r	.	16r	.
.	.	.	.	16ggn\LL	.	16gggn\LL	.
.	.	16.r	.	16gg\JJ	.	16ggg\JJ	.
.	.	.	.	16r	.	16r	.
.	.	32A/Jkk	.	.	.	.	.
=129	=129	=129	=129	=129	=129	=129	=129
(16C#\LL]	.	8g\L	.	16r	.	16r	.
16D\)	.	.	.	16c#/LL	.	16cc#\LL	.
16E\	.	16.r	.	16c#/JJ	.	16cc#\JJ	.
16D#\JJ	.	.	.	16r	.	16r	.
.	.	32g\Jkk	.	.	.	.	.
16E\LL	.	8c#\L	.	16r	.	16r	.
16D#\	.	.	.	16a#/LL	.	16bb-\LL	.
16E\	.	16.r	.	16a#/JJ	.	16bb-\JJ	.
16D#\JJ	.	.	.	16r	.	16r	.
.	.	32c#\Jkk	.	.	.	.	.
=130	=130	=130	=130	=130	=130	=130	=130
4E\	f	8g'\L	f	8r	f	8r	f
.	.	8e'\J	.	8a/	.	8cc#\ 8bb-\	.
4r	.	4r	.	4r	.	4r	.
=131	=131	=131	=131	=131	=131	=131	=131
4e'\	p	4g'\	p	2r	.	4cc#'\	p
4e'\	.	4g'\	.	.	.	4cc#'\	.
=132	=132	=132	=132	=132	=132	=132	=132
4.e\	p	4.g\	p	4.cc#\	p	4.bb-\	p
8e\	.	(16g\LL	.	8cc#\	.	(16bb-\LL	.
.	.	16b-\JJ)	.	.	.	16gg\JJ)	.
=133	=133	=133	=133	=133	=133	=133	=133
8e'\L	.	(16a\LL	.	8cc#'\L	.	(16aa\LL	.
.	.	16b-\)	.	.	.	16gg\)	.
8e'\J	.	(16g\	.	8cc#'\J	.	(16bb-\	.
.	.	16b-\JJ)	.	.	.	16gg\JJ)	.
8e'\L	.	(16a\LL	.	8cc#'\L	.	(16aa\LL	.
.	.	16b-\)	.	.	.	16gg\)	.
8e'\J	.	(16g\	.	8cc#'\J	.	(16bb-\	.
.	.	16b-\JJ)	.	.	.	16gg\JJ)	.
=134	=134	=134	=134	=134	=134	=134	=134
4e\	.	(16a\LL	.	8cc#\	.	(16aa\LL	.
.	.	16b-\JJ)	.	.	.	16gg\JJ)	.
.	.	8r	.	8r	.	8r	.
4r	.	4r	.	4r	.	4r	.
=135	=135	=135	=135	=135	=135	=135	=135
4E'\	<	4g'\	<	4a#'/	<	4cc#'\	<
4E'\	.	4g'\	.	4a#'/	.	4cc#'\	.
=136	=136	=136	=136	=136	=136	=136	=136
4.F#\	p	4.d\	p	4.a/	p	4.cc\ 4.aa\	p
8f#\	.	8dd\	.	(16ccn\LL	.	(16cccn\LL	.
.	.	.	.	16a\JJ)	.	16aa\JJ)	.
=137	=137	=137	=137	=137	=137	=137	=137
8f#\L	.	8dd\L	.	(16g#/LL	.	(16bb\LL	.
.	.	.	.	16a/)	.	16aa\)	.
8f#\J	.	8dd\J	.	(16cc/	.	(16ccc\	.
.	.	.	.	16a/JJ)	.	16aa\JJ)	.
8f#\L	.	8dd\L	.	(16g#/LL	.	(16bb\LL	.
.	.	.	.	16a/)	.	16aa\)	.
8f#\J	.	8dd\J	.	(16cc/	.	(16ccc\	.
.	.	.	.	16a/JJ)	.	16aa\JJ)	.
=138	=138	=138	=138	=138	=138	=138	=138
4f#\	.	8dd\	.	(16g#/LL	.	(16bb\LL	.
.	.	.	.	16a/JJ)	.	16aa\JJ)	.
.	.	4.r	.	4r	.	4r	.
4r	.	.	.	.	.	.	.
.	.	.	.	(16ccc\LL	.	(16eee\LL	.
.	.	.	.	16aa\JJ)	.	16ccc\JJ)	.
=139	=139	=139	=139	=139	=139	=139	=139
2r	.	2r	.	(16gg#\LL	.	(16ddd\LL	.
.	.	.	.	16aa\)	.	16ccc\)	.
.	.	.	.	(16ccc\	.	(16eee\	.
.	.	.	.	16aa\JJ)	.	16ccc\JJ)	.
.	.	.	.	(16gg#\LL	.	(16ddd\LL	.
.	.	.	.	16aa\)	.	16ccc\)	.
.	.	.	.	(16ccc\	.	(16eee\	.
.	.	.	.	16aa\JJ)	.	16ccc\JJ)	.
=140	=140	=140	=140	=140	=140	=140	=140
*clefC4	*clefG2	*	*	*	*	*	*
8r	.	8r	.	(16gg#\LL	.	(16ddd\LL	.
.	.	.	.	16aa\JJ)	.	16ccc\JJ)	.
(16f#\LL	>	(16a\LL	>	4r	.	4r	.
16a\JJ)	.	16cc\JJ)	.	.	.	.	.
(16g#\LL	.	(16b\LL	.	.	.	.	.
16a\JJ)	.	16cc\JJ)	.	.	.	.	.
8r	.	8r	.	(16ccc\LL	>	(16eee\LL	>
.	.	.	.	16aa\JJ)	.	16ccc\JJ)	.
=141	=141	=141	=141	=141	=141	=141	=141
8r	pp	8r	pp	(16gg#\LL	pp	(16ddd\LL	pp
.	.	.	.	16aa\JJ)	.	16ccc\JJ)	.
(16f#\LL	.	(16a\LL	.	4r	.	4r	.
16a\JJ)	.	16cc\JJ)	.	.	.	.	.
(16g#\LL	.	(16b\LL	.	.	.	.	.
16a\JJ)	.	16cc\JJ)	.	.	.	.	.
8r	.	8r	.	(16ccc\LL	.	(16eee\LL	.
.	.	.	.	16aa\JJ)	.	16ccc\JJ)	.
=142	=142	=142	=142	=142	=142	=142	=142
4d'\	f	2r	.	(16bb\LL	.	(16ddd\LL	.
.	.	.	.	16aa\JJ)	.	16ccc\JJ)	.
.	.	.	.	8r	.	8r	.
4d'\	.	.	.	4r	.	4r	.
=143	=143	=143	=143	=143	=143	=143	=143
2d\	.	2r	.	2r	.	2r	.
=144	=144	=144	=144	=144	=144	=144	=144
4d'\	f	4c'\	f	2r	.	2r	.
4d'\	.	4c'\	.	.	.	.	.
=145	=145	=145	=145	=145	=145	=145	=145
2d\	.	2c\	.	2r	.	2r	.
=146	=146	=146	=146	=146	=146	=146	=146
4d\	.	8B'\L	.	2r	f	4d'/ 4dd'/	.
.	.	8g'\J	.	.	.	.	.
32B\LLL	.	8d'\L	.	.	.	4d'/ 4dd'/	.
32c\	.	.	.	.	.	.	.
32B\	.	.	.	.	.	.	.
32c\	.	.	.	.	.	.	.
32d\	.	8B'\J	.	.	.	.	.
32e\	.	.	.	.	.	.	.
32f#\	.	.	.	.	.	.	.
32g\JJJ	.	.	.	.	.	.	.
=147	=147	=147	=147	=147	=147	=147	=147
4d\	.	8G'/L	.	2r	.	2d/ 2dd/	.
.	.	8d'/J	.	.	.	.	.
8.r	.	8B'/L	.	.	.	.	.
.	.	8G'/J	.	.	.	.	.
16B\	.	.	.	.	.	.	.
=148	=148	=148	=148	=148	=148	=148	=148
8c\L	.	8F#'/L	f	4d'/ 4cc'/	.	4d'/ 4dd'/	.
16.r	.	8D'/J	.	.	.	.	.
32c\Jkk	.	.	.	.	.	.	.
8A/L	.	8F#'/L	.	4d'/ 4cc'/	.	4d'/ 4dd'/	.
16.r	.	8A'/J	.	.	.	.	.
32F#/Jkk	.	.	.	.	.	.	.
=149	=149	=149	=149	=149	=149	=149	=149
4.D/	.	8c'/L	.	4.d/ 4.cc/	.	2d/ 2dd/	.
.	.	8A'/J	.	.	.	.	.
.	.	8F#'/L	.	.	.	.	.
8C/	.	8D'/J	.	8a/	.	.	.
=150	=150	=150	=150	=150	=150	=150	=150
*clefF4	*clefF4	*	*	*	*	*	*
8BB'\L	f	8G/	f	4g/	.	4dd\	f
8G'\J	.	4D/ 4B/	.	.	.	.	.
8D'/L	.	.	.	4r	.	(32b\LLL	.
.	.	.	.	.	.	32cc\	.
.	.	.	.	.	.	32b\	.
.	.	.	.	.	.	32cc\	.
8BB'/J	.	[8D/ [8B/	.	.	.	32dd\	.
.	.	.	.	.	.	32ee\	.
.	.	.	.	.	.	32ff#\	.
.	.	.	.	.	.	32gg\JJJ)	.
=151	=151	=151	=151	=151	=151	=151	=151
8GG'/L	.	8D/] 8B/]	.	4d/	f	4dd\	.
8D'/J	.	4D/ 4B/	.	.	.	.	.
8BB'/L	.	.	.	(32B/LLL	.	8.r	.
.	.	.	.	32c/	.	.	.
.	.	.	.	32B/	.	.	.
.	.	.	.	32c/	.	.	.
8GG'/J	.	8D/ 8B/	.	32d/	.	.	.
.	.	.	.	32e/	.	.	.
.	.	.	.	32f#/	.	16b\	.
.	.	.	.	32g/JJJ)	.	.	.
=152	=152	=152	=152	=152	=152	=152	=152
8FF#'/L	.	8D/ 8c/	.	4a/	.	8cc\L	.
8DD'/J	.	4D/ 4c/	.	.	.	16.r	.
.	.	.	.	.	.	32cc\Jkk	.
8FF#'/L	.	.	.	8r	.	8a/L	.
8AA'/J	.	[8D/ [8c/	.	16.r	.	16.r	.
.	.	.	.	32b\	.	32f#/Jkk	.
=153	=153	=153	=153	=153	=153	=153	=153
8D'\L	<	8D/] 8c/]	<	8cc\L	<	4d/	<
8F#'\J	.	4D/ 4c/	.	16.r	.	.	.
.	.	.	.	32cc\Jkk	.	.	.
8A'\L	.	.	.	8a/L	.	8r	.
8c'\J	.	(8D/ 8c/	.	16.r	.	8d/	.
.	.	.	.	32f#/Jkk	.	.	.
=154	=154	=154	=154	=154	=154	=154	=154
8B'\L	.	8D/) 8B/	.	8d/	.	(4g/	.
8E'\J	.	8r	.	4g/	.	.	.
8D'/L	.	[4a\	.	.	.	16a/LL	.
.	.	.	.	.	.	16b/	.
8C'/J	.	.	.	8f#/	.	16cc/	.
.	.	.	.	.	.	16a/JJ)	.
=155	=155	=155	=155	=155	=155	=155	=155
8BB'/L	.	8a\L]	.	4.b\	.	(4dd\	.
8GG'/J	.	8g\J	.	.	.	.	.
8FF#'/L	.	4cc\	.	.	.	8gg/L)	.
8EE'/J	.	.	.	8a/	.	8G/J	.
=156	=156	=156	=156	=156	=156	=156	=156
8DD/L	p	8b'\L	p	8dd'\L	p	(4g/	p
8CC#/J	.	8G'\J	.	8ee'\J	.	.	.
8DD/L	.	8G'/L	.	8dd'/L	.	16a/LL	.
.	.	.	.	.	.	16b/	.
8DD/J	.	(16A/L	.	(16f#/L	.	16cc/	.
.	.	16c/JJ)	.	16a/JJ)	.	16a/JJ)	.
=157	=157	=157	=157	=157	=157	=157	=157
4GG/	.	4B/	.	4g/	.	4g/	.
4r	.	4r	.	4r	.	4r	.
=158	=158	=158	=158	=158	=158	=158	=158
(2GG/	f	[2D/	f	(2B/	f	4b\ 4bb\	f
.	.	.	.	.	.	(32aa\LLL	.
.	.	.	.	.	.	32gg\	.
.	.	.	.	.	.	32ff#\	.
.	.	.	.	.	.	32gg\	.
.	.	.	.	.	.	32ff#\	.
.	.	.	.	.	.	32gg\	.
.	.	.	.	.	.	32bb\	.
.	.	.	.	.	.	32gg\JJJ)	.
=159	=159	=159	=159	=159	=159	=159	=159
4AA/)	p	4D/]	p	4c/)	p	4dd\	p
8.r	.	8.r	.	8.r	.	8.r	.
16AA/	.	16D/	.	16c/	.	16d/	.
=160	=160	=160	=160	=160	=160	=160	=160
8..BB/L	.	8D/L	.	8d/L	.	8g/L	.
.	.	16.r	.	16.r	.	16.r	.
32BB/Jkk	.	32D/Jkk	.	32d/Jkk	.	32g/Jkk	.
8..GG/L	.	8G/L	.	8B/L	.	8b\L	.
.	.	16.r	.	16.r	.	16.r	.
32GG/Jkk	.	32G/Jkk	.	32B/Jkk	.	32b\Jkk	.
=161	=161	=161	=161	=161	=161	=161	=161
8DD/	.	8F#/	.	8A/	.	8dd\	.
8r	.	8r	.	8r	.	8r	.
4r	.	4r	.	4r	.	4r	.
=162	=162	=162	=162	=162	=162	=162	=162
2r	.	(4G/	pp	4b\	pp	2r	.
.	.	4B/	.	(32a/LLL	.	.	.
.	.	.	.	32g/	.	.	.
.	.	.	.	32f#/	.	.	.
.	.	.	.	32g/	.	.	.
.	.	.	.	32f#/	.	.	.
.	.	.	.	32g/	.	.	.
.	.	.	.	32b/	.	.	.
.	.	.	.	32g/JJJ)	.	.	.
=163	=163	=163	=163	=163	=163	=163	=163
(4D\	pp	8d\)	.	8d/	.	4ffn\	pp
.	.	8r	.	8r	.	.	.
4Fn\)	.	4r	.	4r	.	(32ee\LLL	.
.	.	.	.	.	.	32dd\	.
.	.	.	.	.	.	32cc#\	.
.	.	.	.	.	.	32dd\	.
.	.	.	.	.	.	32cc#\	.
.	.	.	.	.	.	32dd\	.
.	.	.	.	.	.	32ff\	.
.	.	.	.	.	.	32dd\JJJ)	.
=164	=164	=164	=164	=164	=164	=164	=164
4A\	.	4A/	.	4cc\	.	8a/	.
.	.	.	.	.	.	8r	.
4r	.	4c\	.	(32b/LLL	.	4r	.
.	.	.	.	32a/	.	.	.
.	.	.	.	32g#/	.	.	.
.	.	.	.	32a/	.	.	.
.	.	.	.	32g#/	.	.	.
.	.	.	.	32a/	.	.	.
.	.	.	.	32cc/	.	.	.
.	.	.	.	32a/JJJ)	.	.	.
=165	=165	=165	=165	=165	=165	=165	=165
(4E\	.	8e\	.	8e/	.	4gg\	.
.	.	8r	.	8r	.	.	.
4G\	.	4r	.	4r	.	(32ff#\LLL	.
.	.	.	.	.	.	32ee\	.
.	.	.	.	.	.	32dd#\	.
.	.	.	.	.	.	32ee\	.
.	.	.	.	.	.	32dd#\	.
.	.	.	.	.	.	32ee\	.
.	.	.	.	.	.	32gg\	.
.	.	.	.	.	.	32ee\JJJ)	.
=166	=166	=166	=166	=166	=166	=166	=166
8B\)	.	(4B/	.	4b\	.	(4dd#\	.
8r	.	.	.	.	.	.	.
4r	.	4c\)	.	(32a/LLL	.	8ee\L	.
.	.	.	.	32g/	.	.	.
.	.	.	.	32f#/	.	.	.
.	.	.	.	32e/	.	.	.
.	.	.	.	32d#/	.	8gg\J)	.
.	.	.	.	32e/	.	.	.
.	.	.	.	32g/	.	.	.
.	.	.	.	32e/JJJ)	.	.	.
=167	=167	=167	=167	=167	=167	=167	=167
(4BB/	.	4B/	.	8d#/L	.	4.bb\	.
.	.	.	.	[8a/J	.	.	.
4C/	.	8E/L	.	32a/LLL]	.	.	.
.	.	.	.	32g/	.	.	.
.	.	.	.	32f#/	.	.	.
.	.	.	.	32e/	.	.	.
.	.	8G/J	.	32d#/	.	8aa#\	.
.	.	.	.	32e/	.	.	.
.	.	.	.	32g/	.	.	.
.	.	.	.	32e/JJJ	.	.	.
=168	=168	=168	=168	=168	=168	=168	=168
4BB/	.	(4B/	.	(8d#/L	.	(4.bb\	.
.	.	.	.	[8a/J)	.	.	.
4C/)	.	8E/L	.	(32a/LLL]	.	.	.
.	.	.	.	32g/	.	.	.
.	.	.	.	32f#/	.	.	.
.	.	.	.	32e/	.	.	.
.	.	8G/J)	.	32d#/	.	8aa#\)	.
.	.	.	.	32e/	.	.	.
.	.	.	.	32g/	.	.	.
.	.	.	.	32e/JJJ)	.	.	.
=169	=169	=169	=169	=169	=169	=169	=169
4BB/	p	8B/	p	8d#/	p	8bb\	p
.	.	8r	.	8r	.	8r	.
4BB/	.	8F#/	.	8d#/	.	8b\	.
.	.	8r	.	8r	.	8r	.
=170	=170	=170	=170	=170	=170	=170	=170
4BB/	.	8F#/	.	8d#/	.	8b\	.
.	.	4.r	.	4.r	.	4.r	.
4r	.	.	.	.	.	.	.
=171	=171	=171	=171	=171	=171	=171	=171
[2E\	pp	[2G#/	pp	[2B/	pp	4b\	pp
.	.	.	.	.	.	(32g#\LLL	.
.	.	.	.	.	.	32a\	.
.	.	.	.	.	.	32g#\	.
.	.	.	.	.	.	32a\	.
.	.	.	.	.	.	32b\	.
.	.	.	.	.	.	32cc#\	.
.	.	.	.	.	.	32dd#\	.
.	.	.	.	.	.	32ee\JJJ)	.
=172	=172	=172	=172	=172	=172	=172	=172
4E\]	.	4G#/]	.	4B/]	.	4b\	.
8.r	.	8.r	.	8.r	.	8.r	.
16G#\	.	16G#/	.	16g#/	.	16g#/	.
=173	=173	=173	=173	=173	=173	=173	=173
8A\L	.	8A\L	.	8a/L	.	8a/L	.
16.r	.	16.r	.	16.r	.	16.r	.
32A\Jkk	.	32a\Jkk	.	32a/Jkk	.	32a/Jkk	.
8F#\L	.	8f#\L	.	8f#/L	.	8f#/L	.
16.r	.	16.r	.	16.r	.	16.r	.
32D#\Jkk	.	32d#\Jkk	.	32d#/Jkk	.	32d#/Jkk	.
=174	=174	=174	=174	=174	=174	=174	=174
8BB/	.	8B/	.	4B/	.	4B/	.
8r	.	8r	.	.	.	.	.
4r	.	4r	.	4r	.	8r	.
.	.	.	.	.	.	8b\	.
=175	=175	=175	=175	=175	=175	=175	=175
2r	.	8r	.	8r	.	(4ee\	.
.	.	8cc#'\	.	4ee\	.	.	.
.	.	8a'\L	.	.	.	16ff#\LL	.
.	.	.	.	.	.	16gg#\	.
.	.	8b'\J	.	8dd#'\	.	16aa\	.
.	.	.	.	.	.	16ff#\JJ)	.
=176	=176	=176	=176	=176	=176	=176	=176
2r	.	8g#'\L	.	8ee'\L	.	(4bb\	.
.	.	8e'\J	.	8gg#'\J	.	.	.
.	.	4r	.	8r	.	8eee\L)	.
.	.	.	.	8B/	.	8b\J	.
=177	=177	=177	=177	=177	=177	=177	=177
8r	.	16r	.	(4e/	.	(4ee\	.
.	.	16G'/LL	.	.	.	.	.
8C'/	.	16F#'/	.	.	.	.	.
.	.	16E'/JJ	.	.	.	.	.
8AA'/L	.	8c'/L	.	16f#/LL	.	16ff#\LL	.
.	.	.	.	16g/	.	16gg\	.
8BB'/J	.	8D#'/J	.	16a/	.	16aa\	.
.	.	.	.	16f#/JJ)	.	16ff#\JJ)	.
=178	=178	=178	=178	=178	=178	=178	=178
8EE/L	.	16r	.	(4g/	.	(4gg\	.
.	.	16B'/LL	.	.	.	.	.
8E/J	.	16A'/	.	.	.	.	.
.	.	16G'/JJ	.	.	.	.	.
8C/L	.	8e'/L	.	16a/LL	.	16aa\LL	.
.	.	.	.	16b/	.	16bb\	.
8D/J	.	8F#'/J	.	16cc/	.	16ccc\	.
.	.	.	.	16a/JJ)	.	16aa\JJ)	.
=179	=179	=179	=179	=179	=179	=179	=179
8GG/L	.	16r	.	(4b\	.	(4bb\	.
.	.	(16d\LL	.	.	.	.	.
8G/J	.	16c#\	.	.	.	.	.
.	.	16d\JJ	.	.	.	.	.
8E\L	.	16g\LL	.	16cc#\LL	.	16ccc#\LL	.
.	.	16e\	.	16dd\	.	16ddd\	.
8A\J	.	16c#\	.	16ee\	.	16eee\	.
.	.	16G\JJ)	.	16cc#\JJ)	.	16ccc#\JJ)	.
=180	=180	=180	=180	=180	=180	=180	=180
8D\L	<	[4F#/	<	4dd\	<	4ddd\	<
8D\J	.	.	.	.	.	.	.
8DD/L	.	(16F#/LL]	.	4cc\	.	4ccc\	.
.	.	16G/	.	.	.	.	.
8D/J	.	16A/	.	.	.	.	.
.	.	16F#/JJ)	.	.	.	.	.
=181	=181	=181	=181	=181	=181	=181	=181
8DD/L	.	(4G/	.	4b\	.	4bb\	.
8D/J	.	.	.	.	.	.	.
8DD/L	.	16E/LL	.	4cc#\	.	4ccc#\	.
.	.	16F#/	.	.	.	.	.
8D/J	.	16G/	.	.	.	.	.
.	.	16E/JJ)	.	.	.	.	.
=182	=182	=182	=182	=182	=182	=182	=182
8DD\L	.	4F#/	.	(4dd\	.	(4ddd\	.
8d\J	.	.	.	.	.	.	.
8D\L	.	(16a\LL	.	16cc\LL	.	16ddd#\LL	.
.	.	16g\	.	16b\	.	16eee\	.
8d\J	.	16f#\	.	16a\	.	16fff#\	.
.	.	16a\JJ)	.	16cc\JJ)	.	16ddd#\JJ)	.
=183	=183	=183	=183	=183	=183	=183	=183
8D\L	.	[4g\	.	(4b\	.	(4eee\	.
8d\J	.	.	.	.	.	.	.
8D\L	.	(16g\LL]	.	16b-/LL	.	16ccc#\LL	.
.	.	16f#\	.	16a/	.	16ddd\	.
8d\J	.	16e\	.	16g/	.	16eee\	.
.	.	16g\JJ)	.	16b-/JJ)	.	16ccc#\JJ)	.
=184	=184	=184	=184	=184	=184	=184	=184
4D\	.	8f#'\L	.	8a'/L	.	24ddd\LL	.
.	.	.	.	.	.	(24ddd\	.
.	.	.	.	.	.	24ccc#\JJ)	.
.	.	8d'\J	.	8A'/J 8f#'/	.	24ddd\LL	.
.	.	.	.	.	.	24eee\	.
.	.	.	.	.	.	24fff#\JJ	.
4A\	.	8r	.	8r	.	24ggg\LL	.
.	.	.	.	.	.	24eee\	.
.	.	.	.	.	.	24ccc#\JJ	.
.	.	8e\	.	8A/ 8g/	.	24aa\LL	.
.	.	.	.	.	.	24bb\	.
.	.	.	.	.	.	24ccc#\JJ	.
=185	=185	=185	=185	=185	=185	=185	=185
4D\	.	8r	.	8r	.	24ddd\LL	.
.	.	.	.	.	.	24aa\	.
.	.	.	.	.	.	24ff#\JJ	.
.	.	8d\	.	8A/ 8f#/	.	24dd\LL	.
.	.	.	.	.	.	24ee\	.
.	.	.	.	.	.	24ff#\JJ	.
4AA/	.	8r	.	8r	.	24gg\LL	.
.	.	.	.	.	.	24ee\	.
.	.	.	.	.	.	24cc#\JJ	.
.	.	8e\	.	8A/ 8g/	.	24a\LL	.
.	.	.	.	.	.	24b\	.
.	.	.	.	.	.	24cc#\JJ	.
=186	=186	=186	=186	=186	=186	=186	=186
4D\	f	4d\	f	4A/ 4f#/	f	24dd\LL	f
.	.	.	.	.	.	24ff#\	.
.	.	.	.	.	.	24aa\JJ	.
.	.	.	.	.	.	24ddd\LL	.
.	.	.	.	.	.	24aa\	.
.	.	.	.	.	.	24ff#\JJ	.
12r	.	8r	.	8r	.	24dd/LL	.
.	.	.	.	.	.	24a/	.
24r	.	.	.	.	.	24f#/JJ	.
24DD'/LL	.	24D'/LL	.	24d'/LL	.	24dd/LL	.
24FF#'/	.	24F#'/	.	24f#'/	.	24a/	.
24AA'/JJ	.	24A'/JJ	.	24a'/JJ	.	24f#/JJ	.
=187	=187	=187	=187	=187	=187	=187	=187
4D\	.	4d\	.	4dd\	p	4d/	.
4r	.	4r	.	8r	.	4r	.
.	.	.	.	8d/	.	.	.
=188	=188	=188	=188	=188	=188	=188	=188
4G'\	p	4d'\	p	4b'\	.	4r	p
4c'\	.	4d'\	.	4a'/	.	4f#'/	.
=189	=189	=189	=189	=189	=189	=189	=189
4.B\	p	4.d\	p	4.dd\	p	4.g/	p
8F#\	.	8A/	.	8cc\	.	8d#/	.
=190	=190	=190	=190	=190	=190	=190	=190
8G'\L	.	8B'/L	.	8b'/L	.	8e'/L	.
8D#'\J	.	8F#'/J	.	8a'/J	.	8c'/J	.
8E'\L	.	8G'/L	.	8g'/L	.	8B'/L	.
8C#'\J	.	8G'/J	.	8a'/J	.	8A'/J	.
=191	=191	=191	=191	=191	=191	=191	=191
4D\	.	8F#/	.	16d'/LL	.	8A/	.
.	.	.	.	16d'/	.	.	.
.	.	4.r	.	16e'/	.	4.r	.
.	.	.	.	16f#'/JJ	.	.	.
4r	.	.	.	16g'/LL	.	.	.
.	.	.	.	16g#'/	.	.	.
.	.	.	.	16a'/	.	.	.
.	.	.	.	16b'/JJ	.	.	.
=192	=192	=192	=192	=192	=192	=192	=192
4A'\	.	4e'\	.	4cc'\	.	4r	.
4d'\	.	4e'\	.	4b'\	.	4g#'/	.
=193	=193	=193	=193	=193	=193	=193	=193
4.c\	.	4.e\	.	4.ee\	.	4.a/	.
(8c\	.	[8d\	.	(8ff#\	.	(8a/	.
=194	=194	=194	=194	=194	=194	=194	=194
8B'\L)	.	8d\L]	.	8gg'\L	.	8g'/L)	.
8c'\J	.	8e'\J	.	8aa'\J	.	8a'/J	.
8d'\L	.	8g'\L	.	8dd'\L	.	8b'\L	.
8D'\J	.	8a'\J	.	8ff#'\J	.	8cc'\J	.
=195	=195	=195	=195	=195	=195	=195	=195
4G\	.	8g\	.	8gg\	.	16b'\LL	.
.	.	.	.	.	.	16dd'\	.
.	.	4.r	.	4.r	.	16ee'\	.
.	.	.	.	.	.	16ff#'\JJ	.
4r	.	.	.	.	.	16gg'\LL	.
.	.	.	.	.	.	16gg#'\	.
.	.	.	.	.	.	16aa'\	.
.	.	.	.	.	.	16aa#'\JJ	.
=196	=196	=196	=196	=196	=196	=196	=196
4GG'/	p	16r	.	2r	.	4bb'\	.
.	.	16D'/LL	.	.	.	.	.
.	.	16E'/	.	.	.	.	.
.	.	16F#'/JJ	.	.	.	.	.
4C'/	.	16G'/LL	.	.	.	4aa'\	.
.	.	16A'/	.	.	.	.	.
.	.	16B'/	.	.	.	.	.
.	.	16c'/JJ	.	.	.	.	.
=197	=197	=197	=197	=197	=197	=197	=197
4.BB/	.	4.d\	.	16r	.	4.ddd\	.
.	.	.	.	16d'/LL	.	.	.
.	.	.	.	16e'/	.	.	.
.	.	.	.	16f#'/JJ	.	.	.
.	.	.	.	16g'/LL	.	.	.
.	.	.	.	16a'/	.	.	.
8AA/	.	8d\	.	16b'/	.	8ccc\	.
.	.	.	.	16cc'/JJ	.	.	.
=198	=198	=198	=198	=198	=198	=198	=198
8GG'/L	.	8d'\L	.	16dd\LL	.	8bb'\L	.
.	.	.	.	16dd\	.	.	.
8FF#'/J	.	8d'\J	.	16ee\	.	8aa'\J	.
.	.	.	.	16ff#\JJ	.	.	.
8EE'/L	.	8d'\L	.	16gg\LL	.	8ggn'\L	.
.	.	.	.	16ee\	.	.	.
8E'/J	.	8g'\J	.	16b\	.	8aa'\J	.
.	.	.	.	16cc#\JJ	.	.	.
=199	=199	=199	=199	=199	=199	=199	=199
4D\	.	8f#\	.	8dd\	.	16dd'\LL	.
.	.	.	.	.	.	16dd'\	.
.	.	8r	.	8r	.	16ee'\	.
.	.	.	.	.	.	16ff#'\JJ	.
4r	.	4r	.	4r	.	16gg'\LL	.
.	.	.	.	.	.	16gg#'\	.
.	.	.	.	.	.	16aa'\	.
.	.	.	.	.	.	16bb'\JJ	.
=200	=200	=200	=200	=200	=200	=200	=200
4AA'/	.	16r	.	2r	.	8ccc\	.
.	.	16E'/LL	.	.	.	.	.
.	.	16F#'/	.	.	.	8r	.
.	.	16G#'/JJ	.	.	.	.	.
4D'\	.	16A'/LL	.	.	.	8bb\	.
.	.	16B'/	.	.	.	.	.
.	.	16c'/	.	.	.	8r	.
.	.	16d'/JJ	.	.	.	.	.
=201	=201	=201	=201	=201	=201	=201	=201
4.C/	.	4.e\	.	16r	.	4.eee\	.
.	.	.	.	16e'/LL	.	.	.
.	.	.	.	16f#'/	.	.	.
.	.	.	.	16g#'/JJ	.	.	.
.	.	.	.	16a'\LL	.	.	.
.	.	.	.	16b'\	.	.	.
8BB/	.	8e\	.	16cc'\	.	8ddd\	.
.	.	.	.	16dd'\JJ	.	.	.
=202	=202	=202	=202	=202	=202	=202	=202
8AA/L	>	16e\LL	>	16ee\LL	>	8ccc'\L	>
.	.	16e\	.	16ee\	.	.	.
8BB/J	.	16e\	.	16ee\	.	8bb'\J	.
.	.	16e\JJ	.	16ee\JJ	.	.	.
8C/L	.	16e\LL	.	16ee\LL	.	8aa\L	.
.	.	16e\	.	16ee\	.	.	.
8C/J	.	16f#\	.	16ff#\	.	8aa#\J	.
.	.	16e\JJ	.	16ee\JJ	.	.	.
=203	=203	=203	=203	=203	=203	=203	=203
4BB/	p	8d#\	p	8dd#\	p	8bb\	p
.	.	4r	.	8r	.	16.r	.
.	.	.	.	.	.	32b\	.
16r	.	.	.	(8gg\L	.	(8bb\L	.
16BB'/LL	.	.	.	.	.	.	.
16C#'/	.	(8B/	.	[8ff#\J)	.	[8aa\J)	.
16D#'/JJ	.	.	.	.	.	.	.
=204	=204	=204	=204	=204	=204	=204	=204
8E\L	.	4.b\)	.	8ff#\L]	.	(8aa\L]	.
8E\J	.	.	.	16ee\Jk	.	16gg\Jk)	.
.	.	.	.	16r	.	32r	.
.	.	.	.	.	.	32b\	.
16r	.	.	.	(8gg\L	.	(8bb\L	.
16BB'/LL	.	.	.	.	.	.	.
16C#'/	.	(8B/	.	[8ff#\J)	.	[8aa\J)	.
16D#'/JJ	.	.	.	.	.	.	.
=205	=205	=205	=205	=205	=205	=205	=205
8E\L	.	4.b\)	.	(8ff#\L]	.	(8aa\L]	.
8E\J	.	.	.	16ee\Jk)	.	16gg\k)	.
.	.	.	.	16r	.	32r	.
.	.	.	.	.	.	32b\Jkk	.
16r	.	.	.	(8gg\L	.	(8bb\L	.
16BB'/LL	.	.	.	.	.	.	.
16C#'/	.	(8B/	.	[8ff#\J)	.	[8aa\J)	.
16D#'/JJ	.	.	.	.	.	.	.
=206	=206	=206	=206	=206	=206	=206	=206
8E'\L	.	4b\)	.	(8ff#\L]	.	(8aa\L]	.
8E'\J	.	.	.	8ee\J)	.	8gg\J)	.
4d\	.	4fn\	.	4b\	.	4gg#\	.
=207	=207	=207	=207	=207	=207	=207	=207
(8c\L	.	(8e\L	.	(8cc\L	.	(16.aa\LL	.
.	.	.	.	.	.	32ee\k	.
16.A\L	.	16.c\L	.	16.ee\L	.	16.ccc\	.
32c\JJk)	.	32e\JJk)	.	32cc\JJk)	.	32aa\JJk)	.
8d\L	.	8d\L	.	8b\L	.	8gg'\L	.
8D\J	.	8d\J	.	8cc\J	.	8ff#\J	.
=208	=208	=208	=208	=208	=208	=208	=208
4G\	.	8d\	.	8b\L	.	8gg\	.
.	.	8r	.	16.r	.	8r	.
.	.	.	.	32b\Jkk	.	.	.
16r	.	(8g\L	.	(8bb\L	.	8r	.
16BB'/LL	.	.	.	.	.	.	.
16C#'/	.	[8f#\J)	.	[8aa\J)	.	[8bb\	.
16D#'/JJ	.	.	.	.	.	.	.
=209	=209	=209	=209	=209	=209	=209	=209
8E\L	.	(8f#\L]	.	(8aa\L]	.	(16bb\LL]	.
.	.	.	.	.	.	16ddd#\	.
8E\J	.	16e\Jk)	.	16gg\k)	.	16eee\	.
.	.	16r	.	32r	.	16ccc\JJ)	.
.	.	.	.	32b\Jkk	.	.	.
16r	.	(8g\L	.	(8bb\L	.	8bb'\L	.
16BB'/LL	.	.	.	.	.	.	.
16C#'/	.	[8f#\J)	.	[8aa\J)	.	[8bb\J	.
16D#'/JJ	.	.	.	.	.	.	.
=210	=210	=210	=210	=210	=210	=210	=210
8E\L	.	(8f#\L]	.	(8aa\L]	.	(16bb\LL]	.
.	.	.	.	.	.	16ddd#\	.
8E\J	.	16e\Jk)	.	16gg\k)	.	16eee\	.
.	.	16r	.	32r	.	16ccc\JJ)	.
.	.	.	.	32b\Jkk	.	.	.
16r	<	(8g\L	<	(8bb\L	<	8bb'\L	<
16BB'/LL	.	.	.	.	.	.	.
16C#'/	.	[8f#\J)	.	[8aa\J)	.	[8bb\J	.
16D#'/JJ	.	.	.	.	.	.	.
=211	=211	=211	=211	=211	=211	=211	=211
8E\L	.	(8f#\L]	.	(8aa\L]	.	(16bb\LL]	.
.	.	.	.	.	.	16eee\	.
8E\J	.	16e\Jk)	.	16gg\Jk)	.	16ddd#\	.
.	.	16r	.	16r	.	16eee\JJ)	.
(4D\	.	(4B/	.	(4gg#\	.	[4fffn\	.
=212	=212	=212	=212	=212	=212	=212	=212
16C/LL)	.	16c\LL)	.	16aa\LL)	.	16fff\LL]	.
(16AA/	.	(16c\	.	(16cc\	.	16eee\JJ	.
16BB/	.	16d\	.	16dd\	.	(32ddd\LLL	.
.	.	.	.	.	.	32ccc\	.
16C/JJ	.	16e\JJ	.	16ee\JJ	.	32bb\	.
.	.	.	.	.	.	32aa\JJJ)	.
8D/L)	.	8d/L)	.	8b\L)	.	8gg'\L	.
8DD/J	.	8D/J	.	8cc\J	.	8ff#\J	.
=213	=213	=213	=213	=213	=213	=213	=213
4GG/	p	8G/	p	16b'/LL	p	8gg\	.
.	.	.	.	(16d/	.	.	.
.	.	8r	.	16g/	.	8r	.
.	.	.	.	16d/JJ)	.	.	.
4r	.	8c\	.	16r	.	24a'\LL	.
.	.	.	.	.	.	24b'\	.
.	.	.	.	(16d/LL	.	.	.
.	.	.	.	.	.	24cc'\	.
.	.	8r	.	16f#/	.	24dd'\	.
.	.	.	.	.	.	24ee'\	.
.	.	.	.	16d/JJ)	.	.	.
.	.	.	.	.	.	24ff#'\JJ	.
=214	=214	=214	=214	=214	=214	=214	=214
2r	.	8B/	.	16r	.	(16.gg\LL	.
.	.	.	.	(16d/LL	.	.	.
.	.	.	.	.	.	32dd\Jk)	.
.	.	8r	.	16g/	.	8bb\J	.
.	.	.	.	16d/JJ)	.	.	.
.	.	8F#/	.	16r	.	(16.aa\LL	.
.	.	.	.	(16d/LL	.	.	.
.	.	.	.	.	.	32dd\Jk)	.
.	.	8r	.	16a/	.	8ccc\J	.
.	.	.	.	16d/JJ)	.	.	.
=215	=215	=215	=215	=215	=215	=215	=215
4r	p	8G/	.	16r	.	(16.bb\LL	.
.	.	.	.	(16d/LL	.	.	.
.	.	.	.	.	.	32dd\Jk)	.
.	.	8r	.	16b/	.	8ddd\J	.
.	.	.	.	16d/JJ)	.	.	.
8C/	.	16r	.	24A'/LL	.	4r	.
.	.	.	.	24B'/	.	.	.
.	.	(16D/LL	.	.	.	.	.
.	.	.	.	24c'/	.	.	.
8r	.	16F#/	.	24d'/	.	.	.
.	.	.	.	24e'/	.	.	.
.	.	16D/JJ)	.	.	.	.	.
.	.	.	.	24f#'/JJ	.	.	.
=216	=216	=216	=216	=216	=216	=216	=216
8BB/	.	16r	.	16g'/LL	.	2r	.
.	.	(16D/LL	.	(16g/	.	.	.
8r	.	16G/	.	16d/	.	.	.
.	.	16D/JJ)	.	16b/JJ)	.	.	.
8FF#/	.	16r	.	16a'/LL	.	.	.
.	.	(16D/LL	.	(16a/	.	.	.
8r	.	16A/	.	16d/	.	.	.
.	.	16D/JJ)	.	16cc/JJ)	.	.	.
=217	=217	=217	=217	=217	=217	=217	=217
8GG/	.	16r	.	16b'/LL	.	4r	.
.	.	16D/LL	.	16b/	.	.	.
8r	.	16B/	.	16d/	.	.	.
.	.	16D/JJ	.	16dd/JJ	.	.	.
8c\	.	16f#'\LL	.	16a'\LL	.	24a'\LL	.
.	.	.	.	.	.	24b'\	.
.	.	16d'\	.	16dd'\	.	.	.
.	.	.	.	.	.	24cc'\	.
8r	.	16f#'\	.	16a'\	.	24dd'\	.
.	.	.	.	.	.	24ee'\	.
.	.	16d'\JJ	.	16dd'\JJ	.	.	.
.	.	.	.	.	.	24ff#'\JJ	.
=218	=218	=218	=218	=218	=218	=218	=218
8B\	.	16g\LL	.	16b\LL	.	16gg'\LL	.
.	.	16d\	.	16dd\	.	16gg\	.
8r	.	16g\	.	16b\	.	16dd\	.
.	.	16d\JJ	.	16dd\JJ	.	16bb\JJ	.
8F#\	.	16a\LL	.	16cc\LL	.	16aa'\LL	.
.	.	16d\	.	16dd\	.	16aa\	.
8r	.	16a\	.	16cc\	.	16dd\	.
.	.	16d\JJ	.	16dd\JJ	.	16ccc\JJ	.
=219	=219	=219	=219	=219	=219	=219	=219
8G\	.	16g\LL	.	16b\LL	.	16bb'\LL	.
.	.	16d\	.	16dd\	.	16bb\	.
8r	.	16g\	.	16b\	.	16dd\	.
.	.	16d\JJ	.	16ee\JJ	.	16ddd\JJ	.
8c\	.	16f#\LL	.	16a\LL	.	24aa'\LL	.
.	.	.	.	.	.	24bb'\	.
.	.	16d\	.	16ee\	.	.	.
.	.	.	.	.	.	24ccc'\	.
8r	.	16f#\	.	16a\	.	24ddd'\	.
.	.	.	.	.	.	24eee'\	.
.	.	16d\JJ	.	16dd\JJ	.	.	.
.	.	.	.	.	.	24fff#'\JJ	.
=220	=220	=220	=220	=220	=220	=220	=220
4B\	.	8g\	.	8b\L	.	24ggg\LL	.
.	.	.	.	.	.	24fff#\	.
.	.	.	.	.	.	24ggg\JJ	.
.	.	8r	.	8b'\J	.	24ddd#\LL	.
.	.	.	.	.	.	24eee\	.
.	.	.	.	.	.	24ddd#\JJ	.
4r	.	4r	.	8cc'/L	.	24eee\LL	.
.	.	.	.	.	.	24fff#\	.
.	.	.	.	.	.	24eee\JJ	.
.	.	.	.	8g#'/J	.	24bb\LL	.
.	.	.	.	.	.	24ccc\	.
.	.	.	.	.	.	24bb\JJ	.
=221	=221	=221	=221	=221	=221	=221	=221
2r	.	2r	.	8a'/L	.	24ccc\LL	.
.	.	.	.	.	.	24ddd\	.
.	.	.	.	.	.	24ccc\	.
.	.	.	.	8fn'/J	.	24gg#\	.
.	.	.	.	.	.	24aa\	.
.	.	.	.	.	.	24gg#\JJ	.
.	.	.	.	8f#'/L	.	24aa\LL	.
.	.	.	.	.	.	24bb\	.
.	.	.	.	.	.	24aa\	.
.	.	.	.	8e'/J	.	24ggn\	.
.	.	.	.	.	.	24aa\	.
.	.	.	.	.	.	24gg\JJ	.
=222	=222	=222	=222	=222	=222	=222	=222
8r	.	8r	.	8d'/L	.	24ff#\LL	.
.	.	.	.	.	.	24gg\	.
.	.	.	.	.	.	24ff#\	.
8D'\	.	8F#'/	.	8c'/J	.	24ee\	.
.	.	.	.	.	.	24ff#\	.
.	.	.	.	.	.	24ee\JJ	.
8E'\L	.	8G'/L	.	8B'/L	.	24dd\LL	.
.	.	.	.	.	.	24ee\	.
.	.	.	.	.	.	24dd\	.
8F#'\J	.	8A'/J	.	8A'/J	.	24cc\	.
.	.	.	.	.	.	24dd\	.
.	.	.	.	.	.	24cc\JJ	.
=223	=223	=223	=223	=223	=223	=223	=223
8G\L	.	8B/	.	8G/	.	16b\LL	.
.	.	.	.	.	.	16bb\	<
8Fn\J	<	4G/	<	4g/	<	16b\	.
.	.	.	.	.	.	16bb\JJ	.
8E/L	.	.	.	.	.	16cc\LL	.
.	.	.	.	.	.	16ccc\	.
8BB/J	.	8fn\	.	[8g/	.	16dd\	.
.	.	.	.	.	.	16ddd\JJ	.
=224	=224	=224	=224	=224	=224	=224	=224
8C/L	.	8e\L	.	8g/]	.	16ee\LL	.
.	.	.	.	.	.	16eee\	.
8AA/J	.	8c\J	.	4dd\	.	16ff#\	.
.	.	.	.	.	.	16fff#\JJ	.
8BB/L	.	8d\L	.	.	.	16gg\LL	.
.	.	.	.	.	.	16ggg\	.
8FF#/J	.	[8d\J	.	[8dd\	.	16aa\	.
.	.	.	.	.	.	16aaa\JJ	.
=225	=225	=225	=225	=225	=225	=225	=225
8GG'/L	.	8d\]	.	8dd\]	.	16bb\LK	.
.	.	.	.	.	.	8bbb\	.
8DD#'/J	.	4G/	.	4b\	.	.	.
.	.	.	.	.	.	[16bbb\Jk	.
8EE'/L	.	.	.	.	.	16bbb\LK]	.
.	.	.	.	.	.	8bbb\	.
8CC#'/J	.	[8G/	.	[8b\	.	.	.
.	.	.	.	.	.	[16bbb\Jk	.
=226	=226	=226	=226	=226	=226	=226	=226
8DD'/L	.	8G/]	.	8b\]	.	16bbb\LK]	.
.	.	.	.	.	.	8bbb\	.
8DD#'/J	.	4G/	.	4b\	.	.	.
.	.	.	.	.	.	[16bbb\Jk	.
8EE'/L	.	.	.	.	.	16bbb\LK]	.
.	.	.	.	.	.	8bbb\	.
8CC#'/J	.	[8G/	.	[8b\	.	.	.
.	.	.	.	.	.	[16bbb\Jk	.
=227	=227	=227	=227	=227	=227	=227	=227
[2DD/	.	8G\L]	.	8b\L]	.	8bbb\]	.
.	.	(8g\J	.	(8gg\J	.	(24bb\LL	.
.	.	.	.	.	.	24gg\	.
.	.	.	.	.	.	24bb\JJ)	.
.	.	8f#\L	.	8ff#\L	.	(24ccc\LL	.
.	.	.	.	.	.	24aa\	.
.	.	.	.	.	.	24ccc\JJ)	.
.	.	8e\J)	.	8ee\J)	.	(24ccc#\LL	.
.	.	.	.	.	.	24aa#\	.
.	.	.	.	.	.	24ccc#\JJ)	.
=228	=228	=228	=228	=228	=228	=228	=228
8DD/L]	.	8d/L	.	8dd\L	.	24ddd\LL	.
.	.	.	.	.	.	24bb\	.
.	.	.	.	.	.	24ddd\	.
(8GG/J	.	8G/J	.	8g\J	.	24bb\	.
.	.	.	.	.	.	24gg\	.
.	.	.	.	.	.	24bb\JJ	.
8FF#/L	.	8F#/L	.	8f#/L	.	24ccc\LL	.
.	.	.	.	.	.	24aa\	.
.	.	.	.	.	.	24ccc\	.
8EE/J	.	8E/J	.	8e/J	.	24ccc#\	.
.	.	.	.	.	.	24aa#\	.
.	.	.	.	.	.	24ccc#\JJ	.
=229	=229	=229	=229	=229	=229	=229	=229
8DD'/)	.	&(8D'/&)	.	&(8d'/&)	.	24ddd\LL	p
.	.	.	.	.	.	24bb\	.
.	.	.	.	.	.	24ddd\JJ	.
8r	.	8r	.	8r	.	8r	.
4r	.	4r	.	4r	.	8r	.
.	.	.	.	.	.	8dd\	.
=230	=230	=230	=230	=230	=230	=230	=230
2r	.	8r	p	8r	p	(4gg\	.
.	.	8ee'\	.	4gg\	.	.	.
.	.	8cc'\L	.	.	.	16aa\LL	.
.	.	.	.	.	.	16bb\	.
.	.	8dd'\J	.	8ff#\	.	16ccc\	.
.	.	.	.	.	.	16aa\JJ)	.
=231	=231	=231	=231	=231	=231	=231	=231
2r	.	8b'\L	.	8gg'\L	.	(4ddd\	.
.	.	8g'\J	.	8bb'\J	.	.	.
.	.	4r	.	4r	.	8ggg\L)	.
.	.	.	.	.	.	8d\J	.
=232	=232	=232	=232	=232	=232	=232	=232
8r	p	8r	.	8r	.	(4g/	.
8E'\	.	4G'/	.	8b'\	.	.	.
8C'/L	.	.	.	8ee'\L	.	16a/LL	.
.	.	.	.	.	.	16b/	.
8D'/J	.	8F#'/	.	8cc'\J	.	16cc/	.
.	.	.	.	.	.	16a/JJ)	.
=233	=233	=233	=233	=233	=233	=233	=233
4GG/	.	8G/	.	4b\	.	4g/	.
.	.	8r	.	.	.	.	.
8r	.	4r	.	4r	.	4r	.
8D\	.	.	.	.	.	.	.
=234	=234	=234	=234	=234	=234	=234	=234
(4G\	<	2r	.	2r	.	2r	.
16A\LL	.	.	.	.	.	.	.
16B\	.	.	.	.	.	.	.
16c\	.	.	.	.	.	.	.
16A\JJ)	.	.	.	.	.	.	.
=235	=235	=235	=235	=235	=235	=235	=235
(4B\	.	(4G/	.	2r	.	[2g/	.
16c\LL	.	16A/LL	.	.	.	.	.
16d\	.	16B/	.	.	.	.	.
16e\	.	16c/	.	.	.	.	.
16c\JJ)	.	16A/JJ)	.	.	.	.	.
=236	=236	=236	=236	=236	=236	=236	=236
(4d\	.	(4B/	.	(4ffn\	<	2g/_	<
16e\LL	.	16c\LL	.	16ee\LL	.	.	.
16fn\	.	16d\	.	16dd\	.	.	.
16g\	.	16e\	.	16cc\	.	.	.
16e\JJ)	.	16c\JJ)	.	16ee\JJ)	.	.	.
=237	=237	=237	=237	=237	=237	=237	=237
2fn;\	.	2d;\	.	2b;\	.	(8g/]	.
.	.	.	.	.	.	4.a-;/)	<
=238	=238	=238	=238	=238	=238	=238	=238
(4D#\	p	(4F#/	p	(4a/	p	[2b\	>
16E\LL	.	16G/LL	.	16g/LL	.	.	.
16F#\	.	16A/	.	16f#/	.	.	.
16G\	.	16B/	.	16e/	.	.	.
16E\JJ)	.	16G/JJ)	.	16g/JJ)	.	.	.
=239	=239	=239	=239	=239	=239	=239	=239
2F#\	<	2A/	<	2d#/	<	(8b\]	.
.	.	.	.	.	.	4.cc\)	<
=240	=240	=240	=240	=240	=240	=240	=240
(4F#\	>	(4A/	>	(4cc\	>	[2dd\	>
16G\LL	.	16B/LL	.	16b/LL	.	.	.
16A\	.	16c/	.	16a/	.	.	.
16B\	.	16d/	.	16g/	.	.	.
16G\JJ)	.	16B/JJ)	.	16b/JJ)	.	.	.
=241	=241	=241	=241	=241	=241	=241	=241
2A\	.	2c\	<	2f#/	<	(8dd\]	.
.	.	.	.	.	.	4.ee-\)	<
=242	=242	=242	=242	=242	=242	=242	=242
4B\	<	8d\	>	8g/	>	4dd\	>
.	.	4.r	.	4.r	.	.	.
4r	.	.	.	.	.	(32b\LLL	.
.	.	.	.	.	.	32cc\	.
.	.	.	.	.	.	32b\	.
.	.	.	.	.	.	32cc\	.
.	.	.	.	.	.	32dd\	.
.	.	.	.	.	.	32ee\	.
.	.	.	.	.	.	32ff#\	.
.	.	.	.	.	.	32gg\JJJ)	.
=243	=243	=243	=243	=243	=243	=243	=243
4r	.	4r	.	4r	.	4dd\	.
8.r	.	8.r	.	8.r	.	8.r	.
16B\	.	16B/	.	16B/	.	16b\	.
=244	=244	=244	=244	=244	=244	=244	=244
8..c\L	.	8c\L	.	8c/L	.	8cc\L	.
.	.	16.r	.	16.r	.	16.r	.
32c\Jkk	.	32c\Jkk	.	32cc/Jkk	.	32cc\Jkk	.
8..A\L	.	8A/L	.	8a/L	.	8a/L	.
.	.	16.r	.	16.r	.	16.r	.
32F#\Jkk	.	32F#/Jkk	.	32f#/Jkk	.	32f#/Jkk	.
=245	=245	=245	=245	=245	=245	=245	=245
4D\	.	4D/	.	4d/	.	4d/	.
4r	.	4r	.	4r	.	8r	.
.	.	.	.	.	.	8dd\	.
=246	=246	=246	=246	=246	=246	=246	=246
2r	.	8r	.	8r	.	(4gg\	.
.	.	8ee'\	.	4gg\	.	.	.
.	.	8cc'\L	.	.	.	16aa\LL	.
.	.	.	.	.	.	16bb\	.
.	.	8dd'\J	.	8ff#'\	.	16ccc\	.
.	.	.	.	.	.	16aa\JJ)	.
=247	=247	=247	=247	=247	=247	=247	=247
2r	.	8b'\L	.	8gg'\L	.	(4ddd\	.
.	.	8g'\J	.	8bb'\J	.	.	.
.	.	8r	.	4r	.	8ggg\)	.
.	.	8D/	.	.	.	8r	.
=248	=248	=248	=248	=248	=248	=248	=248
8r	.	(4G/	.	4.r	.	4.r	.
8E\	.	.	.	.	.	.	.
8C/L	.	16A/LL	.	.	.	.	.
.	.	16B/	.	.	.	.	.
8D/J	.	16c/	.	8d/ 8cc/	.	8a\ 8ff#\	.
.	.	16A/JJ)	.	.	.	.	.
=249	=249	=249	=249	=249	=249	=249	=249
4GG/	.	8G/	.	8d/ 8b/	.	8b\ 8gg\	.
.	.	4.r	.	4.r	.	4.r	.
4r	.	.	.	.	.	.	.
==	==	==	==	==	==	==	==
*-	*-	*-	*-	*-	*-	*-	*-
!!!ENC: Craig Stuart Sapp
!!!END: 2006/04/06/
